; generated by PrusaSlicer 2.3.3+win64 on 2021-08-12 at 12:46:31 UTC

; 

; external perimeters extrusion width = 0.45mm
; perimeters extrusion width = 0.45mm
; infill extrusion width = 0.45mm
; solid infill extrusion width = 0.45mm
; top infill extrusion width = 0.40mm
; support material extrusion width = 0.35mm
; first layer extrusion width = 0.42mm

M73 P0 R118
M73 Q0 S119
M201 X1000 Y1000 Z200 E5000 ; sets maximum accelerations, mm/sec^2
M203 X200 Y200 Z12 E120 ; sets maximum feedrates, mm/sec
M204 P1250 R1250 T1250 ; sets acceleration (P, T) and retract acceleration (R), mm/sec^2
M205 X8.00 Y8.00 Z0.40 E4.50 ; sets the jerk limits, mm/sec
M205 S0 T0 ; sets the minimum extruding and travel feed rate, mm/sec
M107
;TYPE:Custom
M862.3 P "MK3" ; printer model check
M862.1 P0.4 ; nozzle diameter check
M115 U3.9.3 ; tell printer latest fw version
G90 ; use absolute coordinates
M83 ; extruder relative mode
M104 S240 ; set extruder temp
M140 S85 ; set bed temp
M190 S85 ; wait for bed temp
M109 S240 ; wait for extruder temp
G28 W ; home all without mesh bed level
G80 ; mesh bed leveling
G1 Y-3.0 F1000.0 ; go outside print area
G92 E0.0
G1 X60.0 E9.0 F1000.0 ; intro line
G1 X100.0 E12.5 F1000.0 ; intro line
G92 E0.0
M221 S95

; Don't change E values below. Excessive value can damage the printer.
M907 E430 ; set extruder motor current
G21 ; set units to millimeters
G90 ; use absolute coordinates
M83 ; use relative distances for extrusion
M900 K0.08 ; Filament gcode LA 1.5
M900 K45 ; Filament gcode LA 1.0
;LAYER_CHANGE
;Z:0.2
;HEIGHT:0.2
;BEFORE_LAYER_CHANGE
G92 E0.0
;0.2


G1 E-1.40000 F2100.000
G1 Z0.200 F10800.000
;AFTER_LAYER_CHANGE
;0.2
G1 Z0.400
G1 X71.365 Y71.148
G1 Z0.200
G1 E1.40000 F2100.000
M204 S1000
;TYPE:Skirt
;WIDTH:0.42
G1 F1200.000
G1 X72.477 Y70.180 E0.04623
G1 X73.700 Y69.357 E0.04623
G1 X75.272 Y68.566 E0.05516
G1 X76.904 Y68.021 E0.05398
G1 X116.367 Y59.872 E1.26342
G1 X121.025 Y59.052 E0.14829
G1 X125.747 Y58.371 E0.14960
G1 X130.462 Y57.842 E0.14876
G1 X133.425 Y57.649 E0.09309
G1 X136.340 Y57.642 E0.09141
G1 X139.379 Y57.825 E0.09547
G1 X142.340 Y58.193 E0.09356
G1 X145.269 Y58.747 E0.09344
G1 X148.222 Y59.503 E0.09559
G1 X150.996 Y60.401 E0.09141
G1 X153.831 Y61.523 E0.09562
G1 X156.527 Y62.792 E0.09344
G1 X159.076 Y64.190 E0.09114
G1 X161.530 Y65.742 E0.09105
G1 X164.004 Y67.530 E0.09570
G1 X166.302 Y69.427 E0.09344
G1 X168.480 Y71.467 E0.09356
G1 X170.522 Y73.638 E0.09344
G1 X172.423 Y75.932 E0.09344
G1 X174.177 Y78.342 E0.09344
G1 X175.775 Y80.857 E0.09344
G1 X177.245 Y83.533 E0.09574
G1 X178.484 Y86.167 E0.09126
G1 X179.605 Y89.003 E0.09562
G1 X180.502 Y91.764 E0.09102
G1 X181.227 Y94.579 E0.09117
G1 X181.791 Y97.506 E0.09344
G1 X182.177 Y100.533 E0.09570
G1 X182.365 Y103.508 E0.09344
G1 X182.365 Y106.491 E0.09356
G1 X182.177 Y109.466 E0.09344
G1 X181.803 Y112.422 E0.09344
G1 X181.227 Y115.421 E0.09574
G1 X180.503 Y118.232 E0.09102
G1 X179.626 Y120.930 E0.08895
G1 X178.511 Y123.769 E0.09565
G1 X177.213 Y126.532 E0.09570
G1 X175.776 Y129.142 E0.09344
G1 X174.175 Y131.661 E0.09356
G1 X172.421 Y134.070 E0.09344
G1 X170.522 Y136.362 E0.09332
G1 X168.528 Y138.483 E0.09129
G1 X166.247 Y140.620 E0.09800
G1 X164.005 Y142.469 E0.09114
G1 X161.592 Y144.218 E0.09344
G1 X159.073 Y145.812 E0.09344
G1 X156.463 Y147.242 E0.09332
G1 X153.765 Y148.507 E0.09344
G1 X151.057 Y149.576 E0.09129
G1 X148.083 Y150.537 E0.09800
G1 X145.266 Y151.254 E0.09114
G1 X142.338 Y151.807 E0.09344
M73 Q0 S118
G1 X139.384 Y152.175 E0.09332
G1 X136.474 Y152.354 E0.09141
G1 X133.430 Y152.351 E0.09547
G1 X130.422 Y152.154 E0.09451
G1 X125.745 Y151.628 E0.14756
G1 X121.094 Y150.959 E0.14733
G1 X116.383 Y150.131 E0.14996
G1 X76.879 Y141.973 E1.26477
M73 P0 R117
G1 X75.139 Y141.374 E0.05772
G1 X73.812 Y140.713 E0.04647
G1 X72.464 Y139.810 E0.05088
G1 X71.267 Y138.760 E0.04993
G1 X70.278 Y137.641 E0.04682
G1 X69.222 Y136.057 E0.05968
G1 X68.572 Y134.725 E0.04647
G1 X68.055 Y133.199 E0.05052
G1 X67.741 Y131.623 E0.05040
G1 X67.635 Y130.079 E0.04850
G1 X67.636 Y79.893 E1.57355
G1 X67.765 Y78.234 E0.05220
G1 X68.056 Y76.796 E0.04599
G1 X68.525 Y75.398 E0.04623
G1 X69.285 Y73.824 E0.05480
G1 X70.201 Y72.453 E0.05172
G1 X71.325 Y71.193 E0.05292
; printing object holder_2_S_V1.stl id:0 copy 0
;WIPE_START
G1 F8640.000
G1 X72.477 Y70.180 E-0.35418
G1 X73.700 Y69.357 E-0.34044
G1 X75.272 Y68.566 E-0.40623
G1 X76.213 Y68.252 E-0.22915
;WIPE_END
G1 E-0.07000 F2100.000
G1 Z0.400 F10800.000
G1 X105.899 Y129.435
G1 Z0.200
G1 E1.40000 F2100.000
;TYPE:Perimeter
G1 F1200.000
G1 X106.724 Y129.093 E0.02803
G1 X107.562 Y128.983 E0.02650
G1 X108.490 Y129.090 E0.02927
G1 X109.323 Y129.435 E0.02827
G1 X110.032 Y129.979 E0.02803
G1 X110.576 Y130.688 E0.02803
G1 X110.918 Y131.514 E0.02803
G1 X111.035 Y132.400 E0.02803
G1 X110.918 Y133.287 E0.02803
G1 X110.576 Y134.112 E0.02803
G1 X110.032 Y134.822 E0.02803
G1 X109.323 Y135.366 E0.02803
G1 X108.542 Y135.689 E0.02650
G1 X107.618 Y135.826 E0.02927
G1 X106.724 Y135.708 E0.02827
G1 X105.899 Y135.366 E0.02803
G1 X105.189 Y134.822 E0.02803
G1 X104.645 Y134.112 E0.02803
G1 X104.303 Y133.287 E0.02803
G1 X104.187 Y132.400 E0.02803
G1 X104.303 Y131.514 E0.02803
G1 X104.645 Y130.688 E0.02803
G1 X105.189 Y129.979 E0.02803
G1 X105.851 Y129.471 E0.02615
G1 X106.081 Y129.771 F10800.000
G1 F1200.000
G1 X106.823 Y129.460 E0.02523
G1 X107.565 Y129.362 E0.02348
G1 X108.394 Y129.458 E0.02616
G1 X109.133 Y129.764 E0.02506
G1 X109.763 Y130.248 E0.02491
G1 X110.247 Y130.878 E0.02491
G1 X110.551 Y131.613 E0.02491
G1 X110.655 Y132.400 E0.02491
G1 X110.551 Y133.188 E0.02491
G1 X110.247 Y133.922 E0.02491
G1 X109.763 Y134.553 E0.02491
G1 X109.133 Y135.036 E0.02491
G1 X108.441 Y135.323 E0.02348
G1 X107.615 Y135.445 E0.02616
G1 X106.823 Y135.341 E0.02506
G1 X106.089 Y135.036 E0.02491
G1 X105.458 Y134.553 E0.02491
G1 X104.975 Y133.922 E0.02491
G1 X104.671 Y133.188 E0.02491
G1 X104.567 Y132.400 E0.02491
G1 X104.671 Y131.613 E0.02491
G1 X104.975 Y130.878 E0.02491
G1 X105.458 Y130.248 E0.02491
G1 X106.033 Y129.807 E0.02271
G1 X106.263 Y130.106 F10800.000
;TYPE:External perimeter
G1 F1200.000
G1 X106.921 Y129.828 E0.02243
G1 X107.568 Y129.742 E0.02046
G1 X108.299 Y129.827 E0.02305
G1 X108.943 Y130.094 E0.02185
G1 X109.494 Y130.517 E0.02180
G1 X109.917 Y131.069 E0.02180
G1 X110.184 Y131.711 E0.02180
G1 X110.274 Y132.400 E0.02180
G1 X110.184 Y133.090 E0.02180
G1 X109.917 Y133.732 E0.02180
G1 X109.494 Y134.284 E0.02180
G1 X108.943 Y134.707 E0.02180
G1 X108.340 Y134.957 E0.02046
G1 X107.612 Y135.064 E0.02305
G1 X106.921 Y134.973 E0.02185
G1 X106.279 Y134.707 E0.02180
G1 X105.727 Y134.284 E0.02180
G1 X105.304 Y133.732 E0.02180
G1 X105.038 Y133.090 E0.02180
G1 X104.947 Y132.400 E0.02180
G1 X105.038 Y131.711 E0.02180
G1 X105.304 Y131.069 E0.02180
G1 X105.727 Y130.517 E0.02180
G1 X106.215 Y130.143 E0.01927
G1 X106.260 Y129.706 F10800.000
;WIPE_START
G1 F8640.000
G1 X106.921 Y129.828 E-0.17862
G1 X107.568 Y129.742 E-0.15070
G1 X108.299 Y129.827 E-0.16972
G1 X108.943 Y130.094 E-0.16094
G1 X109.494 Y130.517 E-0.16055
G1 X109.917 Y131.069 E-0.16055
G1 X110.184 Y131.711 E-0.16055
G1 X110.274 Y132.400 E-0.16055
G1 X110.259 Y132.520 E-0.02782
;WIPE_END
G1 E-0.07000 F2100.000
G1 Z0.400 F10800.000
G1 X82.436 Y127.492
G1 Z0.200
G1 E1.40000 F2100.000
;TYPE:Perimeter
G1 F1200.000
G1 X82.319 Y128.386 E0.02827
G1 X81.977 Y129.212 E0.02803
G1 X81.432 Y129.921 E0.02803
G1 X80.723 Y130.465 E0.02803
G1 X79.942 Y130.789 E0.02650
G1 X79.019 Y130.925 E0.02927
G1 X78.125 Y130.808 E0.02827
G1 X77.299 Y130.465 E0.02803
G1 X76.590 Y129.921 E0.02803
G1 X76.046 Y129.212 E0.02803
G1 X75.704 Y128.386 E0.02803
G1 X75.587 Y127.500 E0.02803
G1 X75.704 Y126.614 E0.02803
G1 X76.046 Y125.788 E0.02803
G1 X76.590 Y125.079 E0.02803
G1 X77.299 Y124.535 E0.02803
G1 X78.125 Y124.192 E0.02803
G1 X78.963 Y124.082 E0.02650
G1 X79.890 Y124.190 E0.02927
G1 X80.723 Y124.535 E0.02827
G1 X81.432 Y125.079 E0.02803
G1 X81.977 Y125.788 E0.02803
G1 X82.300 Y126.569 E0.02650
G1 X82.428 Y127.433 E0.02739
G1 X82.055 Y127.488 F10800.000
G1 F1200.000
G1 X81.951 Y128.288 E0.02528
G1 X81.647 Y129.022 E0.02491
G1 X81.163 Y129.652 E0.02491
G1 X80.533 Y130.136 E0.02491
G1 X79.841 Y130.423 E0.02348
G1 X79.016 Y130.544 E0.02616
G1 X78.223 Y130.440 E0.02506
G1 X77.489 Y130.136 E0.02491
G1 X76.859 Y129.652 E0.02491
G1 X76.375 Y129.022 E0.02491
G1 X76.071 Y128.288 E0.02491
G1 X75.967 Y127.500 E0.02491
G1 X76.071 Y126.712 E0.02491
G1 X76.375 Y125.978 E0.02491
G1 X76.859 Y125.348 E0.02491
G1 X77.489 Y124.864 E0.02491
G1 X78.223 Y124.560 E0.02491
G1 X78.966 Y124.462 E0.02348
G1 X79.795 Y124.558 E0.02616
G1 X80.533 Y124.864 E0.02506
G1 X81.163 Y125.348 E0.02491
G1 X81.647 Y125.978 E0.02491
G1 X81.934 Y126.670 E0.02348
G1 X82.046 Y127.429 E0.02405
G1 X81.673 Y127.484 F10800.000
;TYPE:External perimeter
G1 F1200.000
G1 X81.584 Y128.189 E0.02230
G1 X81.318 Y128.832 E0.02180
G1 X80.895 Y129.383 E0.02180
G1 X80.343 Y129.807 E0.02180
G1 X79.740 Y130.056 E0.02046
G1 X79.013 Y130.164 E0.02305
G1 X78.322 Y130.073 E0.02185
G1 X77.679 Y129.807 E0.02180
G1 X77.128 Y129.383 E0.02180
G1 X76.704 Y128.832 E0.02180
G1 X76.438 Y128.189 E0.02180
G1 X76.348 Y127.500 E0.02180
G1 X76.438 Y126.811 E0.02180
G1 X76.704 Y126.168 E0.02180
G1 X77.128 Y125.617 E0.02180
G1 X77.679 Y125.193 E0.02180
G1 X78.322 Y124.927 E0.02180
G1 X78.969 Y124.842 E0.02046
G1 X79.699 Y124.927 E0.02305
G1 X80.343 Y125.193 E0.02185
G1 X80.895 Y125.617 E0.02180
G1 X81.318 Y126.168 E0.02180
G1 X81.568 Y126.771 E0.02046
G1 X81.664 Y127.424 E0.02070
G1 X82.020 Y127.682 F10800.000
;WIPE_START
G1 F8640.000
G1 X81.584 Y128.189 E-0.17759
G1 X81.318 Y128.832 E-0.16055
G1 X80.895 Y129.383 E-0.16055
G1 X80.343 Y129.807 E-0.16055
G1 X79.740 Y130.056 E-0.15070
G1 X79.013 Y130.164 E-0.16972
G1 X78.322 Y130.073 E-0.16094
G1 X77.679 Y129.807 E-0.16055
G1 X77.580 Y129.731 E-0.02885
;WIPE_END
G1 E-0.07000 F2100.000
G1 Z0.400 F10800.000
G1 X79.011 Y85.924
G1 Z0.200
G1 E1.40000 F2100.000
;TYPE:Perimeter
G1 F1200.000
G1 X78.125 Y85.808 E0.02803
G1 X77.299 Y85.465 E0.02803
G1 X76.590 Y84.921 E0.02803
G1 X76.046 Y84.212 E0.02803
G1 X75.704 Y83.386 E0.02803
G1 X75.587 Y82.500 E0.02803
G1 X75.704 Y81.614 E0.02803
G1 X76.046 Y80.788 E0.02803
G1 X76.590 Y80.079 E0.02803
G1 X77.299 Y79.535 E0.02803
G1 X78.125 Y79.192 E0.02803
G1 X78.963 Y79.082 E0.02650
G1 X79.890 Y79.190 E0.02927
G1 X80.723 Y79.535 E0.02827
G1 X81.432 Y80.079 E0.02803
G1 X81.977 Y80.788 E0.02803
G1 X82.300 Y81.569 E0.02650
G1 X82.436 Y82.492 E0.02927
G1 X82.319 Y83.386 E0.02827
G1 X81.977 Y84.212 E0.02803
G1 X81.432 Y84.921 E0.02803
G1 X80.723 Y85.465 E0.02803
G1 X79.897 Y85.808 E0.02803
G1 X79.071 Y85.916 E0.02615
G1 X79.021 Y85.543 F10800.000
G1 F1200.000
G1 X78.223 Y85.440 E0.02523
G1 X77.489 Y85.136 E0.02491
G1 X76.859 Y84.652 E0.02491
G1 X76.375 Y84.022 E0.02491
G1 X76.071 Y83.288 E0.02491
G1 X75.967 Y82.500 E0.02491
G1 X76.071 Y81.712 E0.02491
G1 X76.375 Y80.978 E0.02491
G1 X76.859 Y80.348 E0.02491
G1 X77.489 Y79.864 E0.02491
G1 X78.223 Y79.560 E0.02491
G1 X78.966 Y79.462 E0.02348
G1 X79.795 Y79.558 E0.02616
G1 X80.533 Y79.864 E0.02506
G1 X81.163 Y80.348 E0.02491
G1 X81.647 Y80.978 E0.02491
G1 X81.934 Y81.670 E0.02348
G1 X82.056 Y82.495 E0.02616
G1 X81.951 Y83.288 E0.02506
G1 X81.647 Y84.022 E0.02491
G1 X81.163 Y84.652 E0.02491
G1 X80.533 Y85.136 E0.02491
G1 X79.799 Y85.440 E0.02491
G1 X79.081 Y85.535 E0.02271
G1 X79.032 Y85.161 F10800.000
;TYPE:External perimeter
G1 F1200.000
G1 X78.322 Y85.073 E0.02243
G1 X77.679 Y84.807 E0.02180
G1 X77.128 Y84.383 E0.02180
G1 X76.704 Y83.832 E0.02180
G1 X76.438 Y83.189 E0.02180
G1 X76.348 Y82.500 E0.02180
G1 X76.438 Y81.811 E0.02180
G1 X76.704 Y81.168 E0.02180
G1 X77.128 Y80.617 E0.02180
G1 X77.679 Y80.193 E0.02180
G1 X78.322 Y79.927 E0.02180
G1 X78.969 Y79.842 E0.02046
G1 X79.699 Y79.927 E0.02305
G1 X80.343 Y80.193 E0.02185
G1 X80.895 Y80.617 E0.02180
G1 X81.318 Y81.168 E0.02180
G1 X81.568 Y81.771 E0.02046
G1 X81.675 Y82.498 E0.02305
G1 X81.584 Y83.189 E0.02185
G1 X81.318 Y83.832 E0.02180
G1 X80.895 Y84.383 E0.02180
G1 X80.343 Y84.807 E0.02180
G1 X79.701 Y85.073 E0.02180
G1 X79.091 Y85.153 E0.01927
G1 X78.834 Y85.508 F10800.000
;WIPE_START
G1 F8640.000
G1 X78.322 Y85.073 E-0.17862
G1 X77.679 Y84.807 E-0.16055
G1 X77.128 Y84.383 E-0.16055
G1 X76.704 Y83.832 E-0.16055
G1 X76.438 Y83.189 E-0.16055
G1 X76.348 Y82.500 E-0.16055
G1 X76.438 Y81.811 E-0.16055
G1 X76.704 Y81.168 E-0.16055
G1 X76.777 Y81.074 E-0.02752
;WIPE_END
G1 E-0.07000 F2100.000
G1 Z0.400 F10800.000
G1 X104.322 Y78.531
G1 Z0.200
G1 E1.40000 F2100.000
;TYPE:Perimeter
G1 F1200.000
G1 X104.186 Y77.607 E0.02927
G1 X104.303 Y76.713 E0.02827
G1 X104.645 Y75.888 E0.02803
G1 X105.189 Y75.178 E0.02803
G1 X105.899 Y74.634 E0.02803
G1 X106.724 Y74.292 E0.02803
G1 X107.562 Y74.182 E0.02650
G1 X108.490 Y74.289 E0.02927
G1 X109.323 Y74.634 E0.02827
G1 X110.032 Y75.178 E0.02803
G1 X110.576 Y75.888 E0.02803
G1 X110.900 Y76.668 E0.02650
G1 X111.036 Y77.592 E0.02927
G1 X110.918 Y78.486 E0.02827
G1 X110.576 Y79.312 E0.02803
G1 X110.032 Y80.021 E0.02803
G1 X109.323 Y80.565 E0.02803
G1 X108.542 Y80.889 E0.02650
G1 X107.618 Y81.025 E0.02927
G1 X106.724 Y80.907 E0.02827
G1 X105.899 Y80.565 E0.02803
G1 X105.189 Y80.021 E0.02803
G1 X104.645 Y79.312 E0.02803
G1 X104.345 Y78.586 E0.02462
G1 X104.693 Y78.442 F10800.000
G1 F1200.000
G1 X104.566 Y77.604 E0.02657
G1 X104.671 Y76.812 E0.02506
G1 X104.975 Y76.078 E0.02491
G1 X105.458 Y75.447 E0.02491
G1 X106.089 Y74.964 E0.02491
G1 X106.823 Y74.659 E0.02491
G1 X107.565 Y74.562 E0.02348
G1 X108.394 Y74.658 E0.02616
G1 X109.133 Y74.964 E0.02506
G1 X109.763 Y75.447 E0.02491
G1 X110.247 Y76.078 E0.02491
G1 X110.533 Y76.770 E0.02348
G1 X110.655 Y77.595 E0.02616
G1 X110.551 Y78.387 E0.02506
G1 X110.247 Y79.122 E0.02491
G1 X109.763 Y79.752 E0.02491
G1 X109.133 Y80.236 E0.02491
G1 X108.441 Y80.522 E0.02348
G1 X107.615 Y80.644 E0.02616
G1 X106.823 Y80.540 E0.02506
G1 X106.089 Y80.236 E0.02491
G1 X105.458 Y79.752 E0.02491
G1 X104.975 Y79.122 E0.02491
G1 X104.716 Y78.497 E0.02118
G1 X104.947 Y77.601 F10800.000
;TYPE:External perimeter
G1 F1200.000
G1 X105.038 Y76.910 E0.02185
G1 X105.304 Y76.268 E0.02180
G1 X105.727 Y75.716 E0.02180
G1 X106.279 Y75.293 E0.02180
G1 X106.921 Y75.027 E0.02180
G1 X107.568 Y74.942 E0.02046
G1 X108.299 Y75.026 E0.02305
G1 X108.943 Y75.293 E0.02185
G1 X109.494 Y75.716 E0.02180
G1 X109.917 Y76.268 E0.02180
G1 X110.167 Y76.871 E0.02046
G1 X110.274 Y77.598 E0.02305
G1 X110.184 Y78.289 E0.02185
G1 X109.917 Y78.931 E0.02180
G1 X109.494 Y79.483 E0.02180
G1 X108.943 Y79.906 E0.02180
G1 X108.340 Y80.156 E0.02046
G1 X107.612 Y80.263 E0.02305
G1 X106.921 Y80.172 E0.02185
G1 X106.279 Y79.906 E0.02180
G1 X105.727 Y79.483 E0.02180
G1 X105.304 Y78.931 E0.02180
G1 X105.054 Y78.328 E0.02046
G1 X104.956 Y77.661 E0.02116
G1 X104.601 Y77.401 F10800.000
;WIPE_START
G1 F8640.000
G1 X105.038 Y76.910 E-0.17430
G1 X105.304 Y76.268 E-0.16055
G1 X105.727 Y75.716 E-0.16055
G1 X106.279 Y75.293 E-0.16055
G1 X106.921 Y75.027 E-0.16055
G1 X107.568 Y74.942 E-0.15070
G1 X108.299 Y75.026 E-0.16972
G1 X108.943 Y75.293 E-0.16094
G1 X109.053 Y75.378 E-0.03213
;WIPE_END
G1 E-0.07000 F2100.000
G1 Z0.400 F10800.000
G1 X109.826 Y81.938
G1 Z0.200
G1 E1.40000 F2100.000
;TYPE:Perimeter
G1 F1200.000
G1 X110.193 Y81.521 E0.01743
G1 X111.994 Y79.752 E0.07917
G1 X113.922 Y78.121 E0.07917
G1 X115.965 Y76.637 E0.07917
G1 X118.111 Y75.308 E0.07917
G1 X120.350 Y74.141 E0.07917
G1 X122.669 Y73.142 E0.07917
G1 X125.056 Y72.318 E0.07917
G1 X127.497 Y71.672 E0.07917
G1 X129.979 Y71.208 E0.07917
G1 X132.488 Y70.928 E0.07917
G1 X135.011 Y70.835 E0.07917
G1 X137.534 Y70.928 E0.07917
G1 X140.044 Y71.208 E0.07917
G1 X142.526 Y71.672 E0.07917
G1 X144.966 Y72.318 E0.07917
G1 X147.353 Y73.142 E0.07917
G1 X149.672 Y74.141 E0.07917
G1 X151.911 Y75.308 E0.07917
G1 X154.058 Y76.637 E0.07917
G1 X156.100 Y78.121 E0.07917
G1 X158.028 Y79.752 E0.07917
G1 X159.830 Y81.521 E0.07917
G1 X161.496 Y83.418 E0.07917
G1 X163.018 Y85.433 E0.07917
G1 X164.386 Y87.554 E0.07917
G1 X165.594 Y89.771 E0.07917
G1 X166.636 Y92.072 E0.07917
