; generated by PrusaSlicer 2.3.3+win64 on 2021-08-12 at 12:45:47 UTC

; 

; external perimeters extrusion width = 0.45mm
; perimeters extrusion width = 0.45mm
; infill extrusion width = 0.45mm
; solid infill extrusion width = 0.45mm
; top infill extrusion width = 0.40mm
; support material extrusion width = 0.35mm
; first layer extrusion width = 0.42mm

M73 P0 R154
M73 Q0 S155
M201 X1000 Y1000 Z200 E5000 ; sets maximum accelerations, mm/sec^2
M203 X200 Y200 Z12 E120 ; sets maximum feedrates, mm/sec
M204 P1250 R1250 T1250 ; sets acceleration (P, T) and retract acceleration (R), mm/sec^2
M205 X8.00 Y8.00 Z0.40 E4.50 ; sets the jerk limits, mm/sec
M205 S0 T0 ; sets the minimum extruding and travel feed rate, mm/sec
M107
;TYPE:Custom
M862.3 P "MK3" ; printer model check
M862.1 P0.4 ; nozzle diameter check
M115 U3.9.3 ; tell printer latest fw version
G90 ; use absolute coordinates
M83 ; extruder relative mode
M104 S240 ; set extruder temp
M140 S85 ; set bed temp
M190 S85 ; wait for bed temp
M109 S240 ; wait for extruder temp
G28 W ; home all without mesh bed level
G80 ; mesh bed leveling
G1 Y-3.0 F1000.0 ; go outside print area
G92 E0.0
G1 X60.0 E9.0 F1000.0 ; intro line
M73 P0 R153
G1 X100.0 E12.5 F1000.0 ; intro line
G92 E0.0
M221 S95

; Don't change E values below. Excessive value can damage the printer.
M907 E430 ; set extruder motor current
G21 ; set units to millimeters
G90 ; use absolute coordinates
M83 ; use relative distances for extrusion
M900 K0.08 ; Filament gcode LA 1.5
M900 K45 ; Filament gcode LA 1.0
;LAYER_CHANGE
;Z:0.2
;HEIGHT:0.2
;BEFORE_LAYER_CHANGE
G92 E0.0
;0.2


G1 E-1.40000 F2100.000
G1 Z0.200 F10800.000
;AFTER_LAYER_CHANGE
;0.2
G1 Z0.400
G1 X81.797 Y62.479
G1 Z0.200
G1 E1.40000 F2100.000
M204 S1000
;TYPE:Skirt
;WIDTH:0.42
G1 F1200.000
G1 X127.962 Y57.842 E1.45473
G1 X130.925 Y57.649 E0.09311
G1 X133.840 Y57.642 E0.09141
G1 X136.879 Y57.825 E0.09547
G1 X139.837 Y58.193 E0.09344
G1 X142.769 Y58.747 E0.09356
G1 X145.653 Y59.482 E0.09332
G1 X148.492 Y60.400 E0.09356
G1 X151.264 Y61.492 E0.09344
G1 X153.963 Y62.758 E0.09344
G1 X156.576 Y64.190 E0.09344
G1 X159.094 Y65.783 E0.09344
G1 X161.507 Y67.532 E0.09344
G1 X163.805 Y69.429 E0.09344
G1 X165.980 Y71.467 E0.09344
G1 X168.022 Y73.638 E0.09344
G1 X169.923 Y75.932 E0.09344
G1 X171.677 Y78.342 E0.09344
G1 X173.311 Y80.921 E0.09574
G1 X174.745 Y83.533 E0.09344
G1 X175.981 Y86.160 E0.09102
G1 X177.028 Y88.796 E0.08895
G1 X178.001 Y91.760 E0.09780
G1 X178.727 Y94.579 E0.09129
G1 X179.303 Y97.577 E0.09570
G1 X179.677 Y100.533 E0.09344
G1 X179.865 Y103.508 E0.09344
G1 X179.866 Y106.415 E0.09117
G1 X179.678 Y109.462 E0.09570
G1 X179.304 Y112.418 E0.09344
G1 X178.744 Y115.349 E0.09356
G1 X178.003 Y118.232 E0.09332
G1 X177.080 Y121.069 E0.09356
G1 X175.983 Y123.836 E0.09332
G1 X174.713 Y126.532 E0.09344
G1 X173.283 Y129.129 E0.09296
G1 X171.677 Y131.657 E0.09392
G1 X169.967 Y134.009 E0.09117
G1 X167.974 Y136.415 E0.09797
G1 X165.978 Y138.535 E0.09129
G1 X163.803 Y140.573 E0.09344
G1 X161.508 Y142.467 E0.09332
G1 X159.154 Y144.174 E0.09117
G1 X156.510 Y145.848 E0.09812
G1 X153.960 Y147.244 E0.09114
G1 X151.265 Y148.507 E0.09332
G1 X148.493 Y149.600 E0.09344
G1 X145.726 Y150.495 E0.09117
G1 X142.714 Y151.265 E0.09749
G1 X139.834 Y151.808 E0.09189
G1 X136.807 Y152.181 E0.09562
G1 X133.833 Y152.358 E0.09344
G1 X130.926 Y152.351 E0.09114
G1 X128.028 Y152.163 E0.09105
G1 X82.518 Y147.596 E1.43409
G1 X82.028 Y147.491 E0.01574
G1 X81.570 Y147.286 E0.01574
G1 X80.917 Y146.725 E0.02696
G1 X71.837 Y135.213 E0.45973
M73 Q0 S154
G1 X71.525 Y134.679 E0.01941
G1 X71.362 Y134.081 E0.01941
G1 X71.340 Y76.229 E1.81391
G1 X71.424 Y75.616 E0.01941
G1 X71.663 Y75.045 E0.01941
G1 X80.589 Y63.275 E0.46316
G1 X81.131 Y62.783 E0.02296
G1 X81.743 Y62.504 E0.02108
; printing object holder_2_A_V1.stl id:0 copy 0
;WIPE_START
G1 F8640.000
G1 X87.474 Y61.926 E-1.33000
;WIPE_END
G1 E-0.07000 F2100.000
G1 Z0.400 F10800.000
G1 X92.571 Y64.598
G1 Z0.200
G1 E1.40000 F2100.000
;TYPE:Support material
G1 F1200.000
G1 X92.571 Y67.684 E0.09677
G1 X91.817 Y67.957 E0.02515
G1 X91.817 Y64.768 E0.10001
G1 X91.063 Y64.768 E0.02365
G1 X91.063 Y68.231 E0.10858
G1 X90.309 Y68.504 E0.02515
G1 X90.309 Y64.768 E0.11715
G1 X89.555 Y64.768 E0.02365
G1 X89.555 Y68.777 E0.12571
G1 X88.800 Y69.055 E0.02520
G1 X88.800 Y64.768 E0.13442
G1 X88.046 Y64.768 E0.02365
G1 X88.046 Y145.232 E2.52291
G1 X88.800 Y145.232 E0.02365
G1 X88.800 Y140.945 E0.13442
G1 X89.555 Y141.223 E0.02520
G1 X89.555 Y145.232 E0.12571
G1 X90.309 Y145.232 E0.02365
G1 X90.309 Y141.496 E0.11714
G1 X91.063 Y141.769 E0.02515
G1 X91.063 Y145.232 E0.10858
G1 X91.817 Y145.232 E0.02365
G1 X91.817 Y142.043 E0.10001
G1 X92.571 Y142.316 E0.02515
G1 X92.571 Y145.402 E0.09677
G1 X87.292 Y145.402 F10800.000
G1 F1200.000
G1 X87.292 Y64.768 E2.52823
G1 X86.538 Y64.768 E0.02365
G1 X86.538 Y145.232 E2.52291
G1 X85.784 Y145.232 E0.02365
G1 X85.784 Y64.768 E2.52291
G1 X85.030 Y64.768 E0.02365
G1 X85.030 Y145.232 E2.52291
G1 X84.275 Y145.232 E0.02365
G1 X84.275 Y64.768 E2.52291
G1 X83.521 Y64.768 E0.02365
G1 X83.521 Y145.232 E2.52291
G1 X82.767 Y145.232 E0.02365
G1 X82.767 Y64.768 E2.52291
G1 X82.439 Y64.768 E0.01028
G1 X82.439 Y76.410 E0.36505
G1 X82.013 Y76.410 E0.01336
G1 X82.013 Y89.347 E0.40563
M73 P0 R152
G1 X81.259 Y89.347 E0.02365
G1 X81.259 Y76.410 E0.40563
G1 X80.505 Y76.410 E0.02365
G1 X80.505 Y89.347 E0.40563
G1 X79.750 Y89.347 E0.02365
G1 X79.750 Y76.410 E0.40563
G1 X78.996 Y76.410 E0.02365
G1 X78.996 Y89.347 E0.40563
G1 X78.242 Y89.347 E0.02365
G1 X78.242 Y76.410 E0.40563
G1 X77.488 Y76.410 E0.02365
G1 X77.488 Y89.347 E0.40563
G1 X76.734 Y89.347 E0.02365
G1 X76.734 Y76.410 E0.40563
G1 X75.980 Y76.410 E0.02365
G1 X75.980 Y89.347 E0.40563
G1 X75.226 Y89.347 E0.02365
G1 X75.226 Y76.410 E0.40563
G1 X74.471 Y76.410 E0.02365
G1 X74.471 Y89.347 E0.40563
G1 X73.717 Y89.347 E0.02365
G1 X73.717 Y76.241 E0.41095
;WIPE_START
G1 F8640.000
G1 X73.717 Y82.001 E-1.33000
;WIPE_END
G1 E-0.07000 F2100.000
G1 Z0.400 F10800.000
G1 X73.717 Y133.759
G1 Z0.200
G1 E1.40000 F2100.000
G1 F1200.000
G1 X73.717 Y120.653 E0.41095
G1 X74.471 Y120.653 E0.02365
G1 X74.471 Y133.590 E0.40563
G1 X75.226 Y133.590 E0.02365
G1 X75.226 Y120.653 E0.40563
G1 X75.980 Y120.653 E0.02365
G1 X75.980 Y133.590 E0.40563
G1 X76.734 Y133.590 E0.02365
G1 X76.734 Y120.653 E0.40563
G1 X77.488 Y120.653 E0.02365
G1 X77.488 Y133.590 E0.40563
G1 X78.242 Y133.590 E0.02365
G1 X78.242 Y120.653 E0.40563
G1 X78.996 Y120.653 E0.02365
G1 X78.996 Y133.590 E0.40563
G1 X79.750 Y133.590 E0.02365
G1 X79.750 Y120.653 E0.40563
G1 X80.505 Y120.653 E0.02365
G1 X80.505 Y133.590 E0.40563
G1 X81.259 Y133.590 E0.02365
G1 X81.259 Y120.653 E0.40563
G1 X82.013 Y120.653 E0.02365
G1 X82.013 Y133.759 E0.41095
;WIPE_START
G1 F8640.000
G1 X82.013 Y127.999 E-1.33000
;WIPE_END
G1 E-0.07000 F2100.000
G1 Z0.400 F10800.000
G1 X101.687 Y132.400
G1 Z0.200
G1 E1.40000 F2100.000
;TYPE:Perimeter
G1 F1200.000
G1 X101.803 Y131.514 E0.02803
G1 X102.145 Y130.688 E0.02803
G1 X102.689 Y129.979 E0.02803
G1 X103.399 Y129.435 E0.02803
G1 X104.224 Y129.093 E0.02803
G1 X105.062 Y128.983 E0.02650
G1 X105.990 Y129.090 E0.02927
G1 X106.823 Y129.435 E0.02827
G1 X107.532 Y129.979 E0.02803
G1 X108.076 Y130.688 E0.02803
G1 X108.418 Y131.514 E0.02803
G1 X108.535 Y132.400 E0.02803
G1 X108.418 Y133.287 E0.02803
G1 X108.076 Y134.112 E0.02803
G1 X107.532 Y134.822 E0.02803
G1 X106.823 Y135.366 E0.02803
G1 X106.042 Y135.689 E0.02650
G1 X105.118 Y135.826 E0.02927
G1 X104.224 Y135.708 E0.02827
G1 X103.399 Y135.366 E0.02803
G1 X102.689 Y134.822 E0.02803
M73 Q0 S153
G1 X102.145 Y134.112 E0.02803
G1 X101.803 Y133.287 E0.02803
G1 X101.694 Y132.460 E0.02615
G1 X102.068 Y132.411 F10800.000
G1 F1200.000
G1 X102.171 Y131.613 E0.02523
G1 X102.475 Y130.878 E0.02491
G1 X102.958 Y130.248 E0.02491
G1 X103.589 Y129.764 E0.02491
G1 X104.323 Y129.460 E0.02491
G1 X105.065 Y129.362 E0.02348
G1 X105.894 Y129.458 E0.02616
G1 X106.633 Y129.764 E0.02506
G1 X107.263 Y130.248 E0.02491
G1 X107.747 Y130.878 E0.02491
G1 X108.051 Y131.613 E0.02491
G1 X108.155 Y132.400 E0.02491
G1 X108.051 Y133.188 E0.02491
G1 X107.747 Y133.922 E0.02491
G1 X107.263 Y134.553 E0.02491
G1 X106.633 Y135.036 E0.02491
G1 X105.941 Y135.323 E0.02348
G1 X105.115 Y135.445 E0.02616
G1 X104.323 Y135.341 E0.02506
G1 X103.589 Y135.036 E0.02491
G1 X102.958 Y134.553 E0.02491
G1 X102.475 Y133.922 E0.02491
G1 X102.171 Y133.188 E0.02491
G1 X102.076 Y132.470 E0.02271
G1 X102.450 Y132.421 F10800.000
;TYPE:External perimeter
G1 F1200.000
G1 X102.538 Y131.711 E0.02243
G1 X102.804 Y131.069 E0.02180
G1 X103.227 Y130.517 E0.02180
G1 X103.779 Y130.094 E0.02180
G1 X104.421 Y129.828 E0.02180
G1 X105.068 Y129.742 E0.02046
G1 X105.799 Y129.827 E0.02305
G1 X106.443 Y130.094 E0.02185
G1 X106.994 Y130.517 E0.02180
G1 X107.417 Y131.069 E0.02180
G1 X107.684 Y131.711 E0.02180
G1 X107.774 Y132.400 E0.02180
G1 X107.684 Y133.090 E0.02180
G1 X107.417 Y133.732 E0.02180
G1 X106.994 Y134.284 E0.02180
G1 X106.443 Y134.707 E0.02180
G1 X105.840 Y134.957 E0.02046
G1 X105.112 Y135.064 E0.02305
G1 X104.421 Y134.973 E0.02185
G1 X103.779 Y134.707 E0.02180
G1 X103.227 Y134.284 E0.02180
G1 X102.804 Y133.732 E0.02180
G1 X102.538 Y133.090 E0.02180
G1 X102.458 Y132.480 E0.01927
G1 X102.102 Y132.223 F10800.000
;WIPE_START
G1 F8640.000
G1 X102.538 Y131.711 E-0.17862
G1 X102.804 Y131.069 E-0.16055
G1 X103.227 Y130.517 E-0.16055
G1 X103.779 Y130.094 E-0.16055
G1 X104.421 Y129.828 E-0.16055
G1 X105.068 Y129.742 E-0.15070
G1 X105.799 Y129.827 E-0.16972
G1 X106.443 Y130.094 E-0.16094
G1 X106.538 Y130.167 E-0.02782
;WIPE_END
G1 E-0.07000 F2100.000
G1 Z0.400 F10800.000
G1 X156.487 Y132.400
G1 Z0.200
G1 E1.40000 F2100.000
;TYPE:Perimeter
G1 F1200.000
G1 X156.604 Y131.514 E0.02803
G1 X156.946 Y130.688 E0.02803
G1 X157.490 Y129.979 E0.02803
G1 X158.199 Y129.435 E0.02803
G1 X159.025 Y129.093 E0.02803
G1 X159.863 Y128.983 E0.02650
G1 X160.791 Y129.090 E0.02927
G1 X161.624 Y129.435 E0.02827
G1 X162.333 Y129.979 E0.02803
G1 X162.877 Y130.688 E0.02803
G1 X163.200 Y131.469 E0.02650
G1 X163.337 Y132.393 E0.02927
G1 X163.219 Y133.287 E0.02827
G1 X162.877 Y134.112 E0.02803
G1 X162.333 Y134.822 E0.02803
G1 X161.624 Y135.366 E0.02803
G1 X160.798 Y135.708 E0.02803
G1 X159.912 Y135.825 E0.02803
G1 X159.025 Y135.708 E0.02803
G1 X158.199 Y135.366 E0.02803
G1 X157.490 Y134.822 E0.02803
G1 X156.946 Y134.112 E0.02803
G1 X156.604 Y133.287 E0.02803
G1 X156.495 Y132.460 E0.02615
G1 X156.869 Y132.411 F10800.000
G1 F1200.000
G1 X156.971 Y131.613 E0.02523
G1 X157.275 Y130.878 E0.02491
G1 X157.759 Y130.248 E0.02491
G1 X158.390 Y129.764 E0.02491
G1 X159.124 Y129.460 E0.02491
G1 X159.866 Y129.362 E0.02348
G1 X160.695 Y129.458 E0.02616
G1 X161.433 Y129.764 E0.02506
G1 X162.064 Y130.248 E0.02491
G1 X162.548 Y130.878 E0.02491
G1 X162.834 Y131.570 E0.02348
G1 X162.956 Y132.396 E0.02616
G1 X162.852 Y133.188 E0.02506
G1 X162.548 Y133.922 E0.02491
G1 X162.064 Y134.553 E0.02491
G1 X161.433 Y135.036 E0.02491
G1 X160.699 Y135.341 E0.02491
G1 X159.912 Y135.444 E0.02491
G1 X159.124 Y135.341 E0.02491
G1 X158.390 Y135.036 E0.02491
G1 X157.759 Y134.553 E0.02491
G1 X157.275 Y133.922 E0.02491
G1 X156.971 Y133.188 E0.02491
G1 X156.877 Y132.470 E0.02271
G1 X157.251 Y132.421 F10800.000
;TYPE:External perimeter
G1 F1200.000
G1 X157.339 Y131.711 E0.02243
G1 X157.605 Y131.069 E0.02180
G1 X158.028 Y130.517 E0.02180
G1 X158.580 Y130.094 E0.02180
G1 X159.222 Y129.828 E0.02180
G1 X159.869 Y129.742 E0.02046
G1 X160.599 Y129.827 E0.02305
G1 X161.243 Y130.094 E0.02185
G1 X161.795 Y130.517 E0.02180
G1 X162.218 Y131.069 E0.02180
G1 X162.468 Y131.672 E0.02046
G1 X162.575 Y132.399 E0.02305
G1 X162.484 Y133.090 E0.02185
G1 X162.218 Y133.732 E0.02180
G1 X161.795 Y134.284 E0.02180
G1 X161.243 Y134.707 E0.02180
G1 X160.601 Y134.973 E0.02180
G1 X159.912 Y135.064 E0.02180
G1 X159.222 Y134.973 E0.02180
G1 X158.580 Y134.707 E0.02180
G1 X158.028 Y134.284 E0.02180
G1 X157.605 Y133.732 E0.02180
G1 X157.339 Y133.090 E0.02180
G1 X157.259 Y132.480 E0.01927
G1 X156.903 Y132.223 F10800.000
;WIPE_START
G1 F8640.000
G1 X157.339 Y131.711 E-0.17862
G1 X157.605 Y131.069 E-0.16055
G1 X158.028 Y130.517 E-0.16055
G1 X158.580 Y130.094 E-0.16055
G1 X159.222 Y129.828 E-0.16055
G1 X159.869 Y129.742 E-0.15070
G1 X160.599 Y129.827 E-0.16972
G1 X161.243 Y130.094 E-0.16094
G1 X161.339 Y130.167 E-0.02782
;WIPE_END
G1 E-0.07000 F2100.000
G1 Z0.400 F10800.000
G1 X159.919 Y81.025
G1 Z0.200
G1 E1.40000 F2100.000
;TYPE:Perimeter
G1 F1200.000
G1 X159.025 Y80.907 E0.02827
G1 X158.199 Y80.565 E0.02803
G1 X157.490 Y80.021 E0.02803
G1 X156.946 Y79.312 E0.02803
G1 X156.623 Y78.531 E0.02650
G1 X156.486 Y77.607 E0.02927
G1 X156.604 Y76.713 E0.02827
G1 X156.946 Y75.888 E0.02803
G1 X157.490 Y75.178 E0.02803
G1 X158.199 Y74.634 E0.02803
G1 X159.025 Y74.292 E0.02803
G1 X159.863 Y74.182 E0.02650
G1 X160.791 Y74.289 E0.02927
G1 X161.624 Y74.634 E0.02827
G1 X162.333 Y75.178 E0.02803
G1 X162.877 Y75.888 E0.02803
G1 X163.200 Y76.668 E0.02650
G1 X163.337 Y77.592 E0.02927
G1 X163.219 Y78.486 E0.02827
G1 X162.877 Y79.312 E0.02803
G1 X162.333 Y80.021 E0.02803
G1 X161.624 Y80.565 E0.02803
G1 X160.843 Y80.889 E0.02650
G1 X159.978 Y81.016 E0.02739
G1 X159.923 Y80.643 F10800.000
G1 F1200.000
G1 X159.124 Y80.540 E0.02528
G1 X158.390 Y80.236 E0.02491
G1 X157.759 Y79.752 E0.02491
G1 X157.275 Y79.122 E0.02491
G1 X156.989 Y78.430 E0.02348
G1 X156.867 Y77.604 E0.02616
G1 X156.971 Y76.812 E0.02506
G1 X157.275 Y76.078 E0.02491
G1 X157.759 Y75.447 E0.02491
G1 X158.390 Y74.964 E0.02491
G1 X159.124 Y74.659 E0.02491
G1 X159.866 Y74.562 E0.02348
G1 X160.695 Y74.658 E0.02616
G1 X161.433 Y74.964 E0.02506
G1 X162.064 Y75.447 E0.02491
G1 X162.548 Y76.078 E0.02491
G1 X162.834 Y76.770 E0.02348
G1 X162.956 Y77.595 E0.02616
G1 X162.852 Y78.387 E0.02506
G1 X162.548 Y79.122 E0.02491
G1 X162.064 Y79.752 E0.02491
G1 X161.433 Y80.236 E0.02491
G1 X160.742 Y80.522 E0.02348
G1 X159.983 Y80.634 E0.02405
G1 X159.928 Y80.261 F10800.000
;TYPE:External perimeter
G1 F1200.000
G1 X159.222 Y80.172 E0.02230
G1 X158.580 Y79.906 E0.02180
G1 X158.028 Y79.483 E0.02180
G1 X157.605 Y78.931 E0.02180
G1 X157.355 Y78.328 E0.02046
G1 X157.248 Y77.601 E0.02305
G1 X157.339 Y76.910 E0.02185
G1 X157.605 Y76.268 E0.02180
G1 X158.028 Y75.716 E0.02180
G1 X158.580 Y75.293 E0.02180
G1 X159.222 Y75.027 E0.02180
G1 X159.869 Y74.942 E0.02046
G1 X160.599 Y75.026 E0.02305
G1 X161.243 Y75.293 E0.02185
G1 X161.795 Y75.716 E0.02180
G1 X162.218 Y76.268 E0.02180
G1 X162.468 Y76.871 E0.02046
G1 X162.575 Y77.598 E0.02305
G1 X162.484 Y78.289 E0.02185
G1 X162.218 Y78.931 E0.02180
G1 X161.795 Y79.483 E0.02180
G1 X161.243 Y79.906 E0.02180
G1 X160.640 Y80.156 E0.02046
G1 X159.987 Y80.252 E0.02070
G1 X159.729 Y80.608 F10800.000
;WIPE_START
G1 F8640.000
G1 X159.222 Y80.172 E-0.17759
G1 X158.580 Y79.906 E-0.16055
G1 X158.028 Y79.483 E-0.16055
G1 X157.605 Y78.931 E-0.16055
G1 X157.355 Y78.328 E-0.15070
G1 X157.248 Y77.601 E-0.16972
G1 X157.339 Y76.910 E-0.16094
G1 X157.605 Y76.268 E-0.16055
G1 X157.681 Y76.169 E-0.02885
;WIPE_END
G1 E-0.07000 F2100.000
G1 Z0.400 F10800.000
G1 X157.875 Y82.145
G1 Z0.200
G1 E1.40000 F2100.000
;TYPE:Perimeter
G1 F1200.000
G1 X158.772 Y83.146 E0.04213
G1 X160.297 Y85.121 E0.07825
G1 X161.636 Y87.145 E0.07610
G1 X162.895 Y89.377 E0.08036
G1 X163.955 Y91.638 E0.07828
G1 X164.822 Y93.905 E0.07610
G1 X165.565 Y96.358 E0.08036
G1 X166.108 Y98.794 E0.07828
G1 X166.471 Y101.263 E0.07825
G1 X166.653 Y103.752 E0.07825
G1 X166.653 Y106.248 E0.07825
G1 X166.471 Y108.737 E0.07825
G1 X166.108 Y111.206 E0.07825
G1 X165.565 Y113.641 E0.07825
G1 X164.846 Y116.031 E0.07825
G1 X163.955 Y118.362 E0.07825
G1 X162.895 Y120.622 E0.07825
G1 X161.674 Y122.798 E0.07825
G1 X160.297 Y124.879 E0.07825
G1 X158.772 Y126.854 E0.07825
M73 P1 R152
M73 Q1 S153
G1 X157.107 Y128.713 E0.07825
G1 X155.310 Y130.445 E0.07825
G1 X153.392 Y132.041 E0.07825
G1 X151.362 Y133.493 E0.07825
G1 X149.232 Y134.794 E0.07825
G1 X147.013 Y135.935 E0.07825
G1 X144.716 Y136.911 E0.07825
G1 X142.419 Y137.694 E0.07610
G1 X139.941 Y138.347 E0.08036
G1 X137.486 Y138.801 E0.07828
