; generated by PrusaSlicer 2.3.3+win64 on 2021-08-12 at 12:47:19 UTC

; 

; external perimeters extrusion width = 0.45mm
; perimeters extrusion width = 0.45mm
; infill extrusion width = 0.45mm
; solid infill extrusion width = 0.45mm
; top infill extrusion width = 0.40mm
; support material extrusion width = 0.35mm
; first layer extrusion width = 0.42mm

M73 P0 R48
M73 Q0 S48
M201 X1000 Y1000 Z200 E5000 ; sets maximum accelerations, mm/sec^2
M203 X200 Y200 Z12 E120 ; sets maximum feedrates, mm/sec
M204 P1250 R1250 T1250 ; sets acceleration (P, T) and retract acceleration (R), mm/sec^2
M205 X8.00 Y8.00 Z0.40 E4.50 ; sets the jerk limits, mm/sec
M205 S0 T0 ; sets the minimum extruding and travel feed rate, mm/sec
M107
;TYPE:Custom
M862.3 P "MK3" ; printer model check
M862.1 P0.4 ; nozzle diameter check
M115 U3.9.3 ; tell printer latest fw version
G90 ; use absolute coordinates
M83 ; extruder relative mode
M104 S240 ; set extruder temp
M140 S85 ; set bed temp
M190 S85 ; wait for bed temp
M109 S240 ; wait for extruder temp
G28 W ; home all without mesh bed level
G80 ; mesh bed leveling
G1 Y-3.0 F1000.0 ; go outside print area
G92 E0.0
G1 X60.0 E9.0 F1000.0 ; intro line
G1 X100.0 E12.5 F1000.0 ; intro line
G92 E0.0
M221 S95

; Don't change E values below. Excessive value can damage the printer.
M907 E430 ; set extruder motor current
G21 ; set units to millimeters
G90 ; use absolute coordinates
M83 ; use relative distances for extrusion
M900 K0.08 ; Filament gcode LA 1.5
M900 K45 ; Filament gcode LA 1.0
;LAYER_CHANGE
;Z:0.2
;HEIGHT:0.2
;BEFORE_LAYER_CHANGE
G92 E0.0
;0.2


G1 E-1.40000 F2100.000
G1 Z0.200 F10800.000
;AFTER_LAYER_CHANGE
;0.2
G1 Z0.400
G1 X107.643 Y75.515
G1 Z0.200
G1 E1.40000 F2100.000
M204 S1000
;TYPE:Skirt
;WIDTH:0.42
G1 F1200.000
G1 X108.281 Y74.786 E0.03037
G1 X109.001 Y74.154 E0.03002
G1 X109.809 Y73.613 E0.03049
G1 X110.667 Y73.189 E0.03002
G1 X111.580 Y72.877 E0.03026
G1 X112.489 Y72.693 E0.02906
G1 X113.493 Y72.623 E0.03157
G1 X136.504 Y72.623 E0.72149
G1 X137.614 Y72.711 E0.03491
G1 X138.425 Y72.878 E0.02596
G1 X139.302 Y73.176 E0.02906
G1 X140.299 Y73.679 E0.03501
G1 X141.609 Y74.682 E0.05171
G1 X142.351 Y75.507 E0.03478
G1 X142.954 Y76.433 E0.03466
G1 X143.589 Y77.967 E0.05207
G1 X143.819 Y79.079 E0.03561
G1 X143.877 Y79.997 E0.02883
G1 X143.877 Y130.023 E1.56853
G1 X143.789 Y131.116 E0.03440
G1 X143.622 Y131.925 E0.02588
G1 X143.325 Y132.799 E0.02894
G1 X142.890 Y133.686 E0.03097
G1 X142.355 Y134.488 E0.03026
G1 X141.716 Y135.217 E0.03038
G1 X140.993 Y135.851 E0.03014
G1 X140.188 Y136.389 E0.03037
G1 X139.319 Y136.817 E0.03038
G1 X138.405 Y137.127 E0.03026
G1 X137.443 Y137.316 E0.03073
G1 X136.507 Y137.377 E0.02942
G1 X113.458 Y137.377 E0.72268
G1 X112.552 Y137.316 E0.02849
G1 X111.738 Y137.160 E0.02596
G1 X110.701 Y136.825 E0.03418
G1 X109.814 Y136.390 E0.03097
G1 X109.009 Y135.852 E0.03038
G1 X108.281 Y135.213 E0.03037
G1 X107.635 Y134.475 E0.03073
G1 X107.107 Y133.681 E0.02990
G1 X106.673 Y132.794 E0.03097
G1 X106.366 Y131.876 E0.03037
G1 X106.171 Y130.811 E0.03394
G1 X106.123 Y79.977 E1.59385
G1 X106.211 Y78.884 E0.03440
G1 X106.378 Y78.075 E0.02588
G1 X106.675 Y77.201 E0.02894
G1 X107.108 Y76.318 E0.03085
G1 X107.610 Y75.565 E0.02838
; printing object holder_3_U_V1.stl id:0 copy 0
;WIPE_START
G1 F8640.000
G1 X108.281 Y74.786 E-0.23743
G1 X109.001 Y74.154 E-0.22106
G1 X109.809 Y73.613 E-0.22457
G1 X110.667 Y73.189 E-0.22106
G1 X111.580 Y72.877 E-0.22281
G1 X112.442 Y72.702 E-0.20307
;WIPE_END
G1 E-0.07000 F2100.000
G1 Z0.400 F10800.000
G1 X134.600 Y124.657
G1 Z0.200
G1 E1.40000 F2100.000
;TYPE:Perimeter
G1 F1200.000
G1 X135.191 Y124.341 E0.02102
G1 X135.833 Y124.146 E0.02102
G1 X136.464 Y124.084 E0.01988
G1 X137.162 Y124.144 E0.02197
G1 X137.809 Y124.341 E0.02120
G1 X138.400 Y124.657 E0.02102
G1 X138.918 Y125.082 E0.02102
G1 X139.343 Y125.600 E0.02102
G1 X139.659 Y126.191 E0.02102
G1 X139.854 Y126.833 E0.02102
G1 X139.920 Y127.500 E0.02102
G1 X139.854 Y128.167 E0.02102
G1 X139.659 Y128.809 E0.02102
G1 X139.343 Y129.400 E0.02102
G1 X138.918 Y129.918 E0.02102
G1 X138.400 Y130.343 E0.02102
G1 X137.809 Y130.659 E0.02102
G1 X137.167 Y130.854 E0.02102
G1 X136.500 Y130.920 E0.02102
G1 X135.833 Y130.854 E0.02102
G1 X135.191 Y130.659 E0.02102
G1 X134.600 Y130.343 E0.02102
G1 X134.082 Y129.918 E0.02102
G1 X133.657 Y129.400 E0.02102
G1 X133.341 Y128.809 E0.02102
G1 X133.146 Y128.167 E0.02102
G1 X133.080 Y127.500 E0.02102
G1 X133.146 Y126.833 E0.02102
G1 X133.341 Y126.191 E0.02102
G1 X133.657 Y125.600 E0.02102
G1 X134.082 Y125.082 E0.02102
G1 X134.554 Y124.695 E0.01914
G1 X134.793 Y124.986 F10800.000
G1 F1200.000
G1 X135.336 Y124.691 E0.01939
G1 X135.907 Y124.518 E0.01869
G1 X136.466 Y124.462 E0.01762
G1 X137.090 Y124.517 E0.01964
G1 X137.664 Y124.691 E0.01880
G1 X138.189 Y124.972 E0.01869
G1 X138.650 Y125.350 E0.01869
G1 X139.028 Y125.811 E0.01869
G1 X139.309 Y126.336 E0.01869
G1 X139.482 Y126.907 E0.01869
G1 X139.541 Y127.500 E0.01869
G1 X139.482 Y128.093 E0.01869
G1 X139.309 Y128.664 E0.01869
G1 X139.028 Y129.189 E0.01869
G1 X138.650 Y129.650 E0.01869
G1 X138.189 Y130.028 E0.01869
G1 X137.664 Y130.309 E0.01869
G1 X137.093 Y130.482 E0.01869
G1 X136.500 Y130.541 E0.01869
G1 X135.907 Y130.482 E0.01869
G1 X135.336 Y130.309 E0.01869
G1 X134.811 Y130.028 E0.01869
G1 X134.350 Y129.650 E0.01869
G1 X133.972 Y129.189 E0.01869
G1 X133.691 Y128.664 E0.01869
G1 X133.518 Y128.093 E0.01869
G1 X133.459 Y127.500 E0.01869
G1 X133.518 Y126.907 E0.01869
G1 X133.691 Y126.336 E0.01869
G1 X133.972 Y125.811 E0.01869
G1 X134.350 Y125.350 E0.01869
G1 X134.747 Y125.024 E0.01609
G1 X134.986 Y125.316 F10800.000
;TYPE:External perimeter
G1 F1200.000
G1 X135.481 Y125.041 E0.01777
G1 X135.981 Y124.889 E0.01636
G1 X136.468 Y124.841 E0.01536
G1 X137.018 Y124.889 E0.01731
G1 X137.519 Y125.041 E0.01640
G1 X137.979 Y125.287 E0.01636
G1 X138.382 Y125.618 E0.01636
G1 X138.713 Y126.021 E0.01636
G1 X138.959 Y126.481 E0.01636
G1 X139.111 Y126.981 E0.01636
G1 X139.162 Y127.500 E0.01636
G1 X139.111 Y128.019 E0.01636
G1 X138.959 Y128.519 E0.01636
G1 X138.713 Y128.979 E0.01636
G1 X138.382 Y129.382 E0.01636
G1 X137.979 Y129.713 E0.01636
G1 X137.519 Y129.959 E0.01636
G1 X137.019 Y130.111 E0.01636
G1 X136.500 Y130.162 E0.01636
G1 X135.981 Y130.111 E0.01636
G1 X135.481 Y129.959 E0.01636
G1 X135.021 Y129.713 E0.01636
G1 X134.618 Y129.382 E0.01636
G1 X134.287 Y128.979 E0.01636
G1 X134.041 Y128.519 E0.01636
G1 X133.889 Y128.019 E0.01636
G1 X133.838 Y127.500 E0.01636
G1 X133.889 Y126.981 E0.01636
G1 X134.041 Y126.481 E0.01636
G1 X134.287 Y126.021 E0.01636
G1 X134.618 Y125.618 E0.01636
G1 X134.939 Y125.354 E0.01305
G1 X134.955 Y124.917 F10800.000
;WIPE_START
G1 F8640.000
G1 X135.481 Y125.041 E-0.14452
G1 X135.981 Y124.889 E-0.12049
G1 X136.468 Y124.841 E-0.11311
G1 X137.018 Y124.889 E-0.12746
G1 X137.519 Y125.041 E-0.12078
G1 X137.979 Y125.287 E-0.12049
G1 X138.382 Y125.618 E-0.12049
G1 X138.713 Y126.021 E-0.12049
G1 X138.959 Y126.481 E-0.12049
G1 X139.111 Y126.981 E-0.12049
G1 X139.154 Y127.417 E-0.10116
;WIPE_END
G1 E-0.07000 F2100.000
G1 Z0.400 F10800.000
G1 X116.400 Y127.161
G1 Z0.200
G1 E1.40000 F2100.000
;TYPE:Perimeter
G1 F1200.000
G1 X116.405 Y127.792 E0.01979
G1 X116.274 Y128.410 E0.01979
G1 X116.014 Y128.985 E0.01980
G1 X115.636 Y129.491 E0.01980
G1 X115.158 Y129.903 E0.01980
G1 X114.599 Y130.205 E0.01992
G1 X113.953 Y130.385 E0.02101
G1 X113.323 Y130.414 E0.01980
G1 X112.738 Y130.318 E0.01858
G1 X112.153 Y130.090 E0.01967
G1 X111.628 Y129.740 E0.01980
G1 X111.190 Y129.285 E0.01980
G1 X110.860 Y128.747 E0.01980
G1 X110.654 Y128.150 E0.01980
G1 X110.580 Y127.523 E0.01979
G1 X110.644 Y126.895 E0.01979
G1 X110.842 Y126.292 E0.01992
G1 X111.187 Y125.717 E0.02101
G1 X111.625 Y125.263 E0.01980
G1 X112.115 Y124.930 E0.01858
G1 X112.696 Y124.693 E0.01967
G1 X113.319 Y124.586 E0.01980
G1 X113.949 Y124.615 E0.01979
G1 X114.563 Y124.780 E0.01992
G1 X115.155 Y125.094 E0.02101
G1 X115.633 Y125.507 E0.01980
G1 X115.991 Y125.978 E0.01858
G1 X116.259 Y126.546 E0.01967
G1 X116.387 Y127.103 E0.01791
G1 X116.019 Y127.187 F10800.000
G1 F1200.000
G1 X116.028 Y127.754 E0.01780
G1 X115.914 Y128.292 E0.01722
G1 X115.687 Y128.792 E0.01722
G1 X115.358 Y129.232 E0.01722
G1 X114.942 Y129.591 E0.01722
G1 X114.457 Y129.853 E0.01730
G1 X113.893 Y130.010 E0.01834
G1 X113.345 Y130.035 E0.01722
G1 X112.838 Y129.952 E0.01610
G1 X112.328 Y129.754 E0.01715
G1 X111.871 Y129.449 E0.01722
G1 X111.490 Y129.053 E0.01722
G1 X111.203 Y128.585 E0.01722
G1 X111.023 Y128.066 E0.01722
G1 X110.960 Y127.520 E0.01722
G1 X111.015 Y126.974 E0.01722
G1 X111.187 Y126.450 E0.01730
G1 X111.488 Y125.948 E0.01834
G1 X111.869 Y125.552 E0.01722
G1 X112.294 Y125.264 E0.01610
G1 X112.801 Y125.058 E0.01715
G1 X113.342 Y124.965 E0.01722
G1 X113.891 Y124.990 E0.01722
G1 X114.424 Y125.133 E0.01730
G1 X114.941 Y125.407 E0.01834
G1 X115.356 Y125.766 E0.01722
G1 X115.667 Y126.175 E0.01610
G1 X115.901 Y126.670 E0.01715
G1 X116.006 Y127.128 E0.01475
G1 X115.646 Y127.249 F10800.000
;TYPE:External perimeter
G1 F1200.000
G1 X115.650 Y127.716 E0.01465
G1 X115.553 Y128.174 E0.01465
G1 X115.361 Y128.599 E0.01465
G1 X115.081 Y128.974 E0.01465
G1 X114.727 Y129.279 E0.01465
G1 X114.315 Y129.502 E0.01468
G1 X113.833 Y129.635 E0.01568
G1 X113.367 Y129.657 E0.01465
G1 X112.938 Y129.587 E0.01363
G1 X112.503 Y129.417 E0.01463
G1 X112.114 Y129.158 E0.01465
G1 X111.790 Y128.822 E0.01465
G1 X111.546 Y128.423 E0.01465
G1 X111.393 Y127.981 E0.01465
G1 X111.339 Y127.517 E0.01465
G1 X111.386 Y127.052 E0.01465
G1 X111.532 Y126.607 E0.01468
G1 X111.790 Y126.179 E0.01568
G1 X112.114 Y125.842 E0.01465
G1 X112.473 Y125.599 E0.01363
G1 X112.905 Y125.422 E0.01463
G1 X113.366 Y125.343 E0.01465
G1 X113.833 Y125.365 E0.01465
G1 X114.285 Y125.486 E0.01468
G1 X114.726 Y125.721 E0.01568
G1 X115.080 Y126.026 E0.01465
G1 X115.343 Y126.372 E0.01363
G1 X115.542 Y126.794 E0.01463
G1 X115.633 Y127.191 E0.01277
G1 X116.014 Y127.408 F10800.000
;WIPE_START
G1 F8640.000
G1 X115.650 Y127.716 E-0.12146
G1 X115.553 Y128.174 E-0.10790
G1 X115.361 Y128.599 E-0.10790
G1 X115.081 Y128.974 E-0.10790
G1 X114.727 Y129.279 E-0.10790
G1 X114.315 Y129.502 E-0.10810
G1 X113.833 Y129.635 E-0.11544
G1 X113.367 Y129.657 E-0.10790
G1 X112.938 Y129.587 E-0.10036
G1 X112.503 Y129.417 E-0.10770
G1 X112.114 Y129.158 E-0.10790
G1 X111.790 Y128.822 E-0.10790
G1 X111.741 Y128.742 E-0.02163
;WIPE_END
G1 E-0.07000 F2100.000
G1 Z0.400 F10800.000
G1 X113.953 Y85.385
G1 Z0.200
G1 E1.40000 F2100.000
;TYPE:Perimeter
G1 F1200.000
G1 X113.323 Y85.414 E0.01980
G1 X112.738 Y85.318 E0.01858
G1 X112.153 Y85.090 E0.01967
G1 X111.628 Y84.740 E0.01980
G1 X111.190 Y84.285 E0.01980
G1 X110.860 Y83.747 E0.01980
G1 X110.654 Y83.150 E0.01980
G1 X110.580 Y82.523 E0.01979
G1 X110.644 Y81.895 E0.01979
G1 X110.842 Y81.292 E0.01992
G1 X111.187 Y80.717 E0.02101
G1 X111.625 Y80.263 E0.01980
G1 X112.115 Y79.930 E0.01858
G1 X112.696 Y79.693 E0.01967
G1 X113.319 Y79.586 E0.01980
G1 X113.949 Y79.615 E0.01979
G1 X114.563 Y79.780 E0.01992
G1 X115.155 Y80.094 E0.02101
G1 X115.633 Y80.507 E0.01980
G1 X115.991 Y80.978 E0.01858
G1 X116.259 Y81.546 E0.01967
G1 X116.400 Y82.161 E0.01980
G1 X116.405 Y82.792 E0.01979
G1 X116.274 Y83.410 E0.01980
G1 X116.014 Y83.985 E0.01980
G1 X115.636 Y84.491 E0.01980
G1 X115.158 Y84.903 E0.01980
G1 X114.599 Y85.205 E0.01992
G1 X114.011 Y85.369 E0.01913
G1 X113.910 Y85.005 F10800.000
G1 F1200.000
G1 X113.345 Y85.035 E0.01776
G1 X112.838 Y84.952 E0.01610
G1 X112.328 Y84.754 E0.01715
G1 X111.871 Y84.449 E0.01722
G1 X111.490 Y84.053 E0.01722
G1 X111.203 Y83.585 E0.01722
G1 X111.023 Y83.066 E0.01722
G1 X110.960 Y82.520 E0.01722
G1 X111.015 Y81.974 E0.01722
G1 X111.187 Y81.450 E0.01730
G1 X111.488 Y80.948 E0.01834
G1 X111.869 Y80.552 E0.01722
G1 X112.294 Y80.264 E0.01610
G1 X112.801 Y80.058 E0.01715
G1 X113.342 Y79.965 E0.01722
G1 X113.891 Y79.990 E0.01722
G1 X114.424 Y80.133 E0.01730
G1 X114.941 Y80.407 E0.01834
G1 X115.356 Y80.766 E0.01722
G1 X115.667 Y81.175 E0.01610
G1 X115.901 Y81.670 E0.01715
G1 X116.023 Y82.205 E0.01722
G1 X116.028 Y82.754 E0.01722
G1 X115.914 Y83.292 E0.01722
G1 X115.687 Y83.792 E0.01722
G1 X115.358 Y84.232 E0.01722
G1 X114.942 Y84.591 E0.01722
G1 X114.457 Y84.853 E0.01730
G1 X113.968 Y84.989 E0.01591
G1 X113.833 Y84.635 F10800.000
;TYPE:External perimeter
G1 F1200.000
G1 X113.367 Y84.657 E0.01465
G1 X112.938 Y84.587 E0.01363
G1 X112.503 Y84.417 E0.01463
G1 X112.114 Y84.158 E0.01465
G1 X111.790 Y83.822 E0.01465
G1 X111.546 Y83.423 E0.01465
G1 X111.393 Y82.981 E0.01465
G1 X111.339 Y82.517 E0.01465
G1 X111.386 Y82.052 E0.01465
G1 X111.532 Y81.607 E0.01468
G1 X111.790 Y81.179 E0.01568
G1 X112.114 Y80.842 E0.01465
G1 X112.473 Y80.599 E0.01363
G1 X112.905 Y80.422 E0.01463
G1 X113.366 Y80.343 E0.01465
G1 X113.833 Y80.365 E0.01465
G1 X114.285 Y80.486 E0.01468
G1 X114.726 Y80.721 E0.01568
G1 X115.080 Y81.026 E0.01465
G1 X115.343 Y81.372 E0.01363
G1 X115.542 Y81.794 E0.01463
G1 X115.646 Y82.249 E0.01465
G1 X115.650 Y82.716 E0.01465
G1 X115.553 Y83.174 E0.01465
G1 X115.361 Y83.599 E0.01465
G1 X115.081 Y83.974 E0.01465
G1 X114.727 Y84.279 E0.01465
G1 X114.315 Y84.502 E0.01468
G1 X113.891 Y84.619 E0.01379
G1 X113.690 Y85.009 F10800.000
;WIPE_START
G1 F8640.000
G1 X113.367 Y84.657 E-0.12145
G1 X112.938 Y84.587 E-0.10036
G1 X112.503 Y84.417 E-0.10770
G1 X112.114 Y84.158 E-0.10790
G1 X111.790 Y83.822 E-0.10790
G1 X111.546 Y83.423 E-0.10790
G1 X111.393 Y82.981 E-0.10790
G1 X111.339 Y82.517 E-0.10790
G1 X111.386 Y82.052 E-0.10790
G1 X111.532 Y81.607 E-0.10810
G1 X111.790 Y81.179 E-0.11544
G1 X112.114 Y80.842 E-0.10790
G1 X112.191 Y80.790 E-0.02165
;WIPE_END
G1 E-0.07000 F2100.000
G1 Z0.400 F10800.000
G1 X133.080 Y82.500
G1 Z0.200
G1 E1.40000 F2100.000
;TYPE:Perimeter
G1 F1200.000
G1 X133.146 Y81.833 E0.02102
G1 X133.341 Y81.191 E0.02102
G1 X133.657 Y80.600 E0.02102
G1 X134.082 Y80.082 E0.02102
G1 X134.600 Y79.657 E0.02102
G1 X135.191 Y79.341 E0.02102
G1 X135.833 Y79.146 E0.02102
G1 X136.464 Y79.084 E0.01988
G1 X137.162 Y79.144 E0.02197
G1 X137.809 Y79.341 E0.02120
G1 X138.400 Y79.657 E0.02102
G1 X138.918 Y80.082 E0.02102
G1 X139.343 Y80.600 E0.02102
G1 X139.659 Y81.191 E0.02102
G1 X139.854 Y81.833 E0.02102
G1 X139.920 Y82.500 E0.02102
G1 X139.854 Y83.167 E0.02102
G1 X139.659 Y83.809 E0.02102
G1 X139.343 Y84.400 E0.02102
G1 X138.918 Y84.918 E0.02102
G1 X138.400 Y85.343 E0.02102
G1 X137.809 Y85.659 E0.02102
G1 X137.167 Y85.854 E0.02102
G1 X136.500 Y85.920 E0.02102
G1 X135.833 Y85.854 E0.02102
G1 X135.191 Y85.659 E0.02102
G1 X134.600 Y85.343 E0.02102
G1 X134.082 Y84.918 E0.02102
G1 X133.657 Y84.400 E0.02102
G1 X133.341 Y83.809 E0.02102
M73 Q1 S48
G1 X133.146 Y83.167 E0.02102
G1 X133.086 Y82.560 E0.01914
G1 X133.461 Y82.523 F10800.000
G1 F1200.000
G1 X133.518 Y81.907 E0.01939
G1 X133.691 Y81.336 E0.01869
G1 X133.972 Y80.811 E0.01869
G1 X134.350 Y80.350 E0.01869
G1 X134.811 Y79.972 E0.01869
G1 X135.336 Y79.691 E0.01869
G1 X135.907 Y79.518 E0.01869
G1 X136.466 Y79.462 E0.01762
G1 X137.090 Y79.517 E0.01964
G1 X137.664 Y79.691 E0.01880
G1 X138.189 Y79.972 E0.01869
G1 X138.650 Y80.350 E0.01869
M73 P1 R48
G1 X139.028 Y80.811 E0.01869
G1 X139.309 Y81.336 E0.01869
G1 X139.482 Y81.907 E0.01869
G1 X139.541 Y82.500 E0.01869
G1 X139.482 Y83.093 E0.01869
G1 X139.309 Y83.664 E0.01869
G1 X139.028 Y84.189 E0.01869
G1 X138.650 Y84.650 E0.01869
G1 X138.189 Y85.028 E0.01869
G1 X137.664 Y85.309 E0.01869
G1 X137.093 Y85.482 E0.01869
G1 X136.500 Y85.541 E0.01869
G1 X135.907 Y85.482 E0.01869
G1 X135.336 Y85.309 E0.01869
G1 X134.811 Y85.028 E0.01869
G1 X134.350 Y84.650 E0.01869
G1 X133.972 Y84.189 E0.01869
G1 X133.691 Y83.664 E0.01869
G1 X133.518 Y83.093 E0.01869
G1 X133.467 Y82.582 E0.01609
G1 X133.842 Y82.546 F10800.000
;TYPE:External perimeter
G1 F1200.000
G1 X133.889 Y81.981 E0.01777
G1 X134.041 Y81.481 E0.01636
G1 X134.287 Y81.021 E0.01636
G1 X134.618 Y80.618 E0.01636
G1 X135.021 Y80.287 E0.01636
G1 X135.481 Y80.041 E0.01636
G1 X135.981 Y79.889 E0.01636
G1 X136.468 Y79.841 E0.01536
G1 X137.018 Y79.889 E0.01731
G1 X137.519 Y80.041 E0.01640
G1 X137.979 Y80.287 E0.01636
