; generated by PrusaSlicer 2.3.3+win64 on 2022-02-28 at 12:05:14 UTC

; 

; external perimeters extrusion width = 0.45mm
; perimeters extrusion width = 0.45mm
; infill extrusion width = 0.45mm
; solid infill extrusion width = 0.45mm
; top infill extrusion width = 0.40mm
; support material extrusion width = 0.35mm
; first layer extrusion width = 0.42mm

M73 P0 R24
M73 Q0 S24
M201 X1000 Y1000 Z200 E5000 ; sets maximum accelerations, mm/sec^2
M203 X200 Y200 Z12 E120 ; sets maximum feedrates, mm/sec
M204 P1250 R1250 T1250 ; sets acceleration (P, T) and retract acceleration (R), mm/sec^2
M205 X8.00 Y8.00 Z0.40 E4.50 ; sets the jerk limits, mm/sec
M205 S0 T0 ; sets the minimum extruding and travel feed rate, mm/sec
M107
;TYPE:Custom
M862.3 P "MK3" ; printer model check
M862.1 P0.4 ; nozzle diameter check
M115 U3.9.3 ; tell printer latest fw version
G90 ; use absolute coordinates
M83 ; extruder relative mode
M104 S215 ; set extruder temp
M140 S60 ; set bed temp
M190 S60 ; wait for bed temp
M109 S215 ; wait for extruder temp
G28 W ; home all without mesh bed level
G80 ; mesh bed leveling
G1 Y-3.0 F1000.0 ; go outside print area
G92 E0.0
G1 X60.0 E9.0 F1000.0 ; intro line
M73 P0 R23
M73 Q0 S23
G1 X100.0 E12.5 F1000.0 ; intro line
G92 E0.0
M221 S95

; Don't change E values below. Excessive value can damage the printer.
M907 E430 ; set extruder motor current
G21 ; set units to millimeters
G90 ; use absolute coordinates
M83 ; use relative distances for extrusion
M900 K0.05 ; Filament gcode LA 1.5
M900 K30 ; Filament gcode LA 1.0
;LAYER_CHANGE
;Z:0.2
;HEIGHT:0.2
;BEFORE_LAYER_CHANGE
G92 E0.0
;0.2


G1 E-0.80000 F2100.000
G1 Z0.400 F10800.000
;AFTER_LAYER_CHANGE
;0.2
G1 X114.232 Y95.102
G1 Z0.200
G1 E0.80000 F2100.000
M204 S1000
;TYPE:Skirt
;WIDTH:0.42
G1 F1200.000
G1 X114.993 Y94.318 E0.03428
G1 X115.833 Y93.771 E0.03142
G1 X116.827 Y93.394 E0.03334
G1 X117.710 Y93.261 E0.02797
G1 X132.004 Y93.246 E0.44819
G1 X132.984 Y93.349 E0.03091
G1 X133.776 Y93.598 E0.02603
G1 X134.997 Y94.310 E0.04430
G1 X135.680 Y94.990 E0.03023
G1 X136.155 Y95.701 E0.02680
G1 X136.662 Y97.079 E0.04606
G1 X136.754 Y97.980 E0.02837
G1 X136.751 Y112.139 E0.44396
G1 X136.643 Y113.020 E0.02783
G1 X136.401 Y113.780 E0.02501
G1 X135.766 Y114.900 E0.04035
G1 X134.997 Y115.690 E0.03457
G1 X134.127 Y116.250 E0.03245
G1 X133.117 Y116.620 E0.03373
G1 X132.119 Y116.751 E0.03157
G1 X117.840 Y116.750 E0.44769
G1 X116.976 Y116.642 E0.02732
G1 X116.216 Y116.399 E0.02501
G1 X115.102 Y115.768 E0.04013
G1 X114.310 Y114.997 E0.03466
G1 X113.750 Y114.127 E0.03245
G1 X113.380 Y113.117 E0.03373
G1 X113.249 Y112.119 E0.03157
G1 X113.250 Y97.840 E0.44769
G1 X113.358 Y96.976 E0.02732
G1 X113.601 Y96.216 E0.02501
G1 X114.202 Y95.155 E0.03825
G1 X114.529 Y95.342 F10800.000
G1 F1200.000
G1 X115.244 Y94.599 E0.03234
G1 X116.033 Y94.091 E0.02943
G1 X116.944 Y93.753 E0.03047
G1 X117.766 Y93.635 E0.02603
G1 X132.004 Y93.623 E0.44642
G1 X132.914 Y93.720 E0.02871
G1 X133.664 Y93.958 E0.02466
G1 X134.762 Y94.604 E0.03994
G1 X135.396 Y95.238 E0.02812
G1 X135.843 Y95.913 E0.02538
G1 X136.294 Y97.167 E0.04180
G1 X136.377 Y97.983 E0.02569
G1 X136.374 Y112.114 E0.44309
G1 X136.274 Y112.944 E0.02621
G1 X136.041 Y113.667 E0.02383
G1 X135.453 Y114.690 E0.03699
G1 X134.747 Y115.408 E0.03156
G1 X133.933 Y115.927 E0.03026
G1 X133.012 Y116.258 E0.03071
G1 X132.094 Y116.375 E0.02902
G1 X117.871 Y116.374 E0.44595
M73 P1 R23
M73 Q1 S23
G1 X117.052 Y116.273 E0.02586
G1 X116.329 Y116.039 E0.02383
G1 X115.314 Y115.455 E0.03673
G1 X114.595 Y114.750 E0.03158
G1 X114.075 Y113.937 E0.03026
G1 X113.742 Y113.012 E0.03083
G1 X113.625 Y112.094 E0.02902
G1 X113.626 Y97.871 E0.44595
G1 X113.727 Y97.052 E0.02586
G1 X113.961 Y96.329 E0.02383
G1 X114.499 Y95.394 E0.03382
; printing object thread.stl id:0 copy 0
;WIPE_START
G1 F8640.000
G1 X115.244 Y94.599 E-0.25162
G1 X116.033 Y94.091 E-0.21671
G1 X116.944 Y93.753 E-0.22436
G1 X117.233 Y93.712 E-0.06731
;WIPE_END
G1 E-0.04000 F2100.000
G1 Z0.600 F10800.000
G1 X117.056 Y97.247
G1 Z0.200
G1 E0.80000 F2100.000
;TYPE:Perimeter
G1 F1200.000
G1 X117.247 Y97.056 E0.00848
G1 X117.476 Y96.912 E0.00848
G1 X117.731 Y96.822 E0.00848
G1 X118.044 Y96.787 E0.00988
G1 X131.956 Y96.787 E0.43619
G1 X132.269 Y96.822 E0.00988
G1 X132.524 Y96.912 E0.00848
G1 X132.753 Y97.056 E0.00848
G1 X132.944 Y97.247 E0.00848
G1 X133.088 Y97.476 E0.00848
G1 X133.178 Y97.731 E0.00848
G1 X133.213 Y98.044 E0.00988
G1 X133.213 Y111.956 E0.43619
G1 X133.178 Y112.269 E0.00988
G1 X133.088 Y112.524 E0.00848
G1 X132.944 Y112.753 E0.00848
G1 X132.753 Y112.944 E0.00848
G1 X132.524 Y113.088 E0.00848
G1 X132.269 Y113.178 E0.00848
G1 X131.956 Y113.213 E0.00988
G1 X118.044 Y113.213 E0.43619
G1 X117.731 Y113.178 E0.00988
G1 X117.476 Y113.088 E0.00848
G1 X117.247 Y112.944 E0.00848
G1 X117.056 Y112.753 E0.00848
G1 X116.912 Y112.524 E0.00848
G1 X116.822 Y112.269 E0.00848
G1 X116.787 Y111.956 E0.00988
G1 X116.787 Y98.044 E0.43619
G1 X116.822 Y97.731 E0.00988
G1 X116.912 Y97.476 E0.00848
G1 X117.024 Y97.298 E0.00660
G1 X116.759 Y97.010 F10800.000
;TYPE:External perimeter
G1 F1200.000
G1 X117.010 Y96.759 E0.01115
G1 X117.311 Y96.570 E0.01115
G1 X117.647 Y96.452 E0.01115
G1 X118.023 Y96.410 E0.01187
G1 X131.977 Y96.410 E0.43752
G1 X132.353 Y96.452 E0.01187
G1 X132.689 Y96.570 E0.01115
G1 X132.990 Y96.759 E0.01115
G1 X133.241 Y97.010 E0.01115
G1 X133.430 Y97.311 E0.01115
G1 X133.548 Y97.647 E0.01115
G1 X133.590 Y98.023 E0.01187
G1 X133.590 Y111.977 E0.43752
G1 X133.548 Y112.353 E0.01187
G1 X133.430 Y112.689 E0.01115
G1 X133.241 Y112.990 E0.01115
G1 X132.990 Y113.241 E0.01115
G1 X132.689 Y113.430 E0.01115
G1 X132.353 Y113.548 E0.01115
G1 X131.977 Y113.590 E0.01187
G1 X118.023 Y113.590 E0.43752
G1 X117.647 Y113.548 E0.01187
G1 X117.311 Y113.430 E0.01115
G1 X117.010 Y113.241 E0.01115
G1 X116.759 Y112.990 E0.01115
G1 X116.570 Y112.689 E0.01115
G1 X116.452 Y112.353 E0.01115
G1 X116.410 Y111.977 E0.01187
G1 X116.410 Y98.023 E0.43752
G1 X116.452 Y97.647 E0.01187
G1 X116.570 Y97.311 E0.01115
G1 X116.727 Y97.061 E0.00926
G1 X117.110 Y97.063 F10800.000
;WIPE_START
G1 F8640.000
G1 X117.010 Y96.759 E-0.09563
G1 X117.311 Y96.570 E-0.08208
G1 X117.647 Y96.452 E-0.08208
G1 X118.023 Y96.410 E-0.08743
G1 X119.811 Y96.410 E-0.41278
;WIPE_END
G1 E-0.04000 F2100.000
G1 Z0.600 F10800.000
G1 X133.069 Y97.773
G1 Z0.200
G1 E0.80000 F2100.000
;TYPE:Solid infill
;WIDTH:0.422422
G1 F1200.000
G1 X132.571 Y97.275 E0.02221
G1 X132.401 Y97.168 E0.00635
G1 X132.205 Y97.100 E0.00652
G1 X131.829 Y97.070 E0.01192
G1 X132.930 Y98.171 E0.04914
G1 X132.930 Y98.708 E0.01694
G1 X131.292 Y97.070 E0.07309
G1 X130.756 Y97.070 E0.01694
G1 X132.930 Y99.244 E0.09704
G1 X132.930 Y99.781 E0.01694
G1 X130.219 Y97.070 E0.12099
G1 X129.682 Y97.070 E0.01694
G1 X132.930 Y100.318 E0.14494
G1 X132.930 Y100.854 E0.01694
G1 X129.146 Y97.070 E0.16889
G1 X128.609 Y97.070 E0.01694
G1 X132.930 Y101.391 E0.19284
G1 X132.930 Y101.928 E0.01694
G1 X128.072 Y97.070 E0.21680
G1 X127.535 Y97.070 E0.01694
G1 X132.930 Y102.465 E0.24075
G1 X132.930 Y103.001 E0.01694
G1 X126.999 Y97.070 E0.26470
G1 X126.462 Y97.070 E0.01694
G1 X132.930 Y103.538 E0.28865
G1 X132.930 Y104.075 E0.01694
G1 X125.925 Y97.070 E0.31260
G1 X125.389 Y97.070 E0.01694
G1 X132.930 Y104.611 E0.33655
G1 X132.930 Y105.148 E0.01694
G1 X124.852 Y97.070 E0.36050
M73 P2 R23
M73 Q2 S23
G1 X124.315 Y97.070 E0.01694
G1 X132.930 Y105.685 E0.38445
G1 X132.930 Y106.221 E0.01694
G1 X123.779 Y97.070 E0.40840
G1 X123.242 Y97.070 E0.01694
G1 X132.930 Y106.758 E0.43235
G1 X132.930 Y107.295 E0.01694
G1 X122.705 Y97.070 E0.45630
G1 X122.168 Y97.070 E0.01694
G1 X132.930 Y107.832 E0.48026
G1 X132.930 Y108.368 E0.01694
G1 X121.632 Y97.070 E0.50421
G1 X121.095 Y97.070 E0.01694
G1 X132.930 Y108.905 E0.52816
G1 X132.930 Y109.442 E0.01694
G1 X120.558 Y97.070 E0.55211
G1 X120.022 Y97.070 E0.01694
G1 X132.930 Y109.978 E0.57606
G1 X132.930 Y110.515 E0.01694
G1 X119.485 Y97.070 E0.60001
G1 X118.948 Y97.070 E0.01694
G1 X132.930 Y111.052 E0.62396
G1 X132.930 Y111.588 E0.01694
G1 X118.412 Y97.070 E0.64791
G1 X118.060 Y97.070 E0.01109
G1 X117.894 Y97.089 E0.00529
G1 X132.911 Y112.106 E0.67019
G1 X132.900 Y112.205 E0.00315
G1 X132.832 Y112.401 E0.00652
G1 X132.769 Y112.501 E0.00373
G1 X117.499 Y97.231 E0.68144
G1 X117.424 Y97.278 E0.00279
G1 X117.278 Y97.424 E0.00652
G1 X117.231 Y97.499 E0.00280
G1 X132.501 Y112.769 E0.68143
G1 X132.401 Y112.832 E0.00373
G1 X132.205 Y112.900 E0.00652
G1 X132.106 Y112.911 E0.00315
G1 X117.089 Y97.894 E0.67019
M73 P3 R23
M73 Q3 S23
G1 X117.070 Y98.060 E0.00528
G1 X117.070 Y98.412 E0.01109
G1 X131.588 Y112.930 E0.64791
G1 X131.052 Y112.930 E0.01694
G1 X117.070 Y98.948 E0.62396
G1 X117.070 Y99.485 E0.01694
G1 X130.515 Y112.930 E0.60001
G1 X129.978 Y112.930 E0.01694
G1 X117.070 Y100.022 E0.57606
G1 X117.070 Y100.558 E0.01694
G1 X129.442 Y112.930 E0.55211
G1 X128.905 Y112.930 E0.01694
G1 X117.070 Y101.095 E0.52815
G1 X117.070 Y101.632 E0.01694
G1 X128.368 Y112.930 E0.50420
G1 X127.831 Y112.930 E0.01694
G1 X117.070 Y102.169 E0.48025
G1 X117.070 Y102.705 E0.01694
G1 X127.295 Y112.930 E0.45630
G1 X126.758 Y112.930 E0.01694
G1 X117.070 Y103.242 E0.43235
G1 X117.070 Y103.779 E0.01694
G1 X126.221 Y112.930 E0.40840
G1 X125.685 Y112.930 E0.01694
G1 X117.070 Y104.315 E0.38445
G1 X117.070 Y104.852 E0.01694
G1 X125.148 Y112.930 E0.36050
G1 X124.611 Y112.930 E0.01694
G1 X117.070 Y105.389 E0.33655
G1 X117.070 Y105.925 E0.01694
G1 X124.075 Y112.930 E0.31260
G1 X123.538 Y112.930 E0.01694
G1 X117.070 Y106.462 E0.28864
G1 X117.070 Y106.999 E0.01694
G1 X123.001 Y112.930 E0.26469
G1 X122.464 Y112.930 E0.01694
G1 X117.070 Y107.536 E0.24074
M73 Q4 S23
G1 X117.070 Y108.072 E0.01694
G1 X121.928 Y112.930 E0.21679
M73 P4 R23
G1 X121.391 Y112.930 E0.01694
G1 X117.070 Y108.609 E0.19284
G1 X117.070 Y109.146 E0.01694
G1 X120.854 Y112.930 E0.16889
G1 X120.318 Y112.930 E0.01694
G1 X117.070 Y109.682 E0.14494
G1 X117.070 Y110.219 E0.01694
G1 X119.781 Y112.930 E0.12099
G1 X119.244 Y112.930 E0.01694
G1 X117.070 Y110.756 E0.09704
G1 X117.070 Y111.292 E0.01694
G1 X118.708 Y112.930 E0.07309
G1 X118.171 Y112.930 E0.01694
G1 X117.070 Y111.829 E0.04914
G1 X117.100 Y112.205 E0.01191
G1 X117.168 Y112.401 E0.00652
G1 X117.275 Y112.571 E0.00635
G1 X117.773 Y113.068 E0.02220
; stop printing object thread.stl id:0 copy 0
M106 S84.15
;LAYER_CHANGE
;Z:0.4
;HEIGHT:0.2
;BEFORE_LAYER_CHANGE
G92 E0.0
;0.4


;WIPE_START
G1 F8640.000
G1 X117.275 Y112.571 E-0.16242
G1 X117.168 Y112.401 E-0.04649
G1 X117.100 Y112.205 E-0.04774
G1 X117.070 Y111.829 E-0.08718
G1 X118.171 Y112.930 E-0.35954
G1 X118.416 Y112.930 E-0.05662
;WIPE_END
G1 E-0.04000 F2100.000
G1 Z0.600 F10800.000
;AFTER_LAYER_CHANGE
;0.4
G1 X115.102 Y115.768
G1 Z0.400
G1 E0.80000 F2100.000
;TYPE:Skirt
;WIDTH:0.42
G1 F3000.000
G1 X114.310 Y114.997 E0.03466
G1 X113.750 Y114.127 E0.03245
G1 X113.380 Y113.117 E0.03373
G1 X113.249 Y112.119 E0.03157
G1 X113.250 Y97.840 E0.44769
G1 X113.358 Y96.976 E0.02732
G1 X113.601 Y96.216 E0.02501
G1 X114.232 Y95.102 E0.04013
G1 X114.993 Y94.318 E0.03428
G1 X115.833 Y93.771 E0.03142
G1 X116.827 Y93.394 E0.03334
G1 X117.710 Y93.261 E0.02797
G1 X132.004 Y93.246 E0.44819
G1 X132.984 Y93.349 E0.03091
G1 X133.776 Y93.598 E0.02603
G1 X134.997 Y94.310 E0.04430
G1 X135.680 Y94.990 E0.03023
G1 X136.155 Y95.701 E0.02680
G1 X136.662 Y97.079 E0.04606
G1 X136.754 Y97.980 E0.02837
G1 X136.751 Y112.139 E0.44396
G1 X136.643 Y113.020 E0.02783
G1 X136.401 Y113.780 E0.02501
G1 X135.766 Y114.900 E0.04035
G1 X134.997 Y115.690 E0.03457
G1 X134.127 Y116.250 E0.03245
G1 X133.117 Y116.620 E0.03373
G1 X132.119 Y116.751 E0.03157
G1 X117.840 Y116.750 E0.44769
M73 P4 R22
G1 X116.976 Y116.642 E0.02732
G1 X116.216 Y116.399 E0.02501
G1 X115.155 Y115.798 E0.03825
G1 X115.342 Y115.471 F10800.000
G1 F3000.000
G1 X114.595 Y114.750 E0.03258
G1 X114.075 Y113.937 E0.03026
G1 X113.742 Y113.012 E0.03083
G1 X113.625 Y112.094 E0.02902
G1 X113.626 Y97.871 E0.44595
G1 X113.727 Y97.052 E0.02586
G1 X113.961 Y96.329 E0.02383
G1 X114.545 Y95.314 E0.03673
G1 X115.244 Y94.599 E0.03134
G1 X116.033 Y94.091 E0.02943
G1 X116.944 Y93.753 E0.03047
G1 X117.766 Y93.635 E0.02603
G1 X132.004 Y93.623 E0.44642
G1 X132.914 Y93.720 E0.02871
G1 X133.664 Y93.958 E0.02466
G1 X134.762 Y94.604 E0.03994
G1 X135.396 Y95.238 E0.02812
G1 X135.843 Y95.913 E0.02538
G1 X136.294 Y97.167 E0.04180
G1 X136.377 Y97.983 E0.02569
G1 X136.374 Y112.114 E0.44309
G1 X136.274 Y112.944 E0.02621
G1 X136.041 Y113.667 E0.02383
G1 X135.453 Y114.690 E0.03699
G1 X134.747 Y115.408 E0.03156
G1 X133.933 Y115.927 E0.03026
G1 X133.012 Y116.258 E0.03071
G1 X132.094 Y116.375 E0.02902
G1 X117.871 Y116.374 E0.44595
G1 X117.052 Y116.273 E0.02586
G1 X116.329 Y116.039 E0.02383
G1 X115.394 Y115.501 E0.03382
; printing object thread.stl id:0 copy 0
;WIPE_START
G1 F8640.000
G1 X114.595 Y114.750 E-0.25336
G1 X114.075 Y113.937 E-0.22282
G1 X113.742 Y113.012 E-0.22703
G1 X113.711 Y112.768 E-0.05679
;WIPE_END
G1 E-0.04000 F2100.000
G1 Z0.800 F10800.000
G1 X117.148 Y113.065
M73 Q4 S22
G1 Z0.400
G1 E0.80000 F2100.000
M204 S800
;TYPE:Perimeter
;WIDTH:0.45
G1 F2700.000
G1 X116.934 Y112.850 E0.01027
G1 X116.771 Y112.592 E0.01034
G1 X116.670 Y112.304 E0.01034
G1 X116.632 Y111.965 E0.01155
G1 X116.632 Y98.035 E0.47148
G1 X116.670 Y97.696 E0.01155
G1 X116.767 Y97.419 E0.00995
G1 X116.935 Y97.148 E0.01078
G1 X117.150 Y96.934 E0.01027
G1 X117.408 Y96.771 E0.01034
G1 X117.696 Y96.670 E0.01034
G1 X118.035 Y96.632 E0.01155
G1 X131.965 Y96.632 E0.47148
G1 X132.292 Y96.669 E0.01116
G1 X132.594 Y96.772 E0.01078
G1 X132.850 Y96.934 E0.01027
G1 X133.066 Y97.150 E0.01034
G1 X133.229 Y97.408 E0.01034
G1 X133.330 Y97.696 E0.01034
G1 X133.368 Y98.035 E0.01155
G1 X133.368 Y111.965 E0.47148
G1 X133.330 Y112.304 E0.01155
G1 X133.233 Y112.581 E0.00995
G1 X133.065 Y112.852 E0.01078
G1 X132.850 Y113.066 E0.01027
G1 X132.592 Y113.229 E0.01034
G1 X132.304 Y113.330 E0.01034
G1 X131.965 Y113.368 E0.01155
G1 X118.035 Y113.368 E0.47148
G1 X117.696 Y113.330 E0.01155
G1 X117.419 Y113.233 E0.00995
G1 X117.199 Y113.096 E0.00875
M204 S1000
G1 X116.894 Y113.386 F10800.000
M204 S800
;TYPE:External perimeter
G1 F1500.000
G1 X116.613 Y113.106 E0.01342
G1 X116.402 Y112.770 E0.01344
G1 X116.271 Y112.395 E0.01344
G1 X116.225 Y111.987 E0.01387
G1 X116.225 Y98.013 E0.47303
G1 X116.271 Y97.605 E0.01387
G1 X116.398 Y97.242 E0.01301
G1 X116.614 Y96.894 E0.01389
G1 X116.894 Y96.613 E0.01342
G1 X117.230 Y96.402 E0.01344
G1 X117.605 Y96.271 E0.01344
G1 X118.013 Y96.225 E0.01387
G1 X131.987 Y96.225 E0.47303
G1 X132.382 Y96.269 E0.01344
G1 X132.770 Y96.402 E0.01389
G1 X133.106 Y96.613 E0.01342
G1 X133.387 Y96.894 E0.01344
G1 X133.598 Y97.230 E0.01344
G1 X133.729 Y97.605 E0.01344
G1 X133.775 Y98.013 E0.01387
G1 X133.775 Y111.987 E0.47303
G1 X133.729 Y112.395 E0.01387
G1 X133.602 Y112.758 E0.01301
G1 X133.386 Y113.106 E0.01389
G1 X133.106 Y113.387 E0.01342
G1 X132.770 Y113.598 E0.01344
G1 X132.395 Y113.729 E0.01344
G1 X131.987 Y113.775 E0.01387
G1 X118.013 Y113.775 E0.47303
G1 X117.605 Y113.729 E0.01387
G1 X117.242 Y113.602 E0.01301
G1 X116.945 Y113.418 E0.01186
M204 S1000
G1 X116.953 Y112.994 F10800.000
;WIPE_START
G1 F8640.000
G1 X116.613 Y113.106 E-0.10507
G1 X116.402 Y112.770 E-0.09170
G1 X116.271 Y112.395 E-0.09170
G1 X116.225 Y111.987 E-0.09464
G1 X116.225 Y110.355 E-0.37688
;WIPE_END
G1 E-0.04000 F2100.000
G1 Z0.800 F10800.000
G1 X132.270 Y113.211
G1 Z0.400
G1 E0.80000 F2100.000
;TYPE:Solid infill
;WIDTH:0.455996
G1 F4800.000
G1 X132.831 Y112.650 E0.02725
G1 X132.955 Y112.449 E0.00812
G1 X133.030 Y112.235 E0.00777
G1 X133.063 Y111.834 E0.01383
G1 X131.834 Y113.063 E0.05969
G1 X131.250 Y113.063 E0.02007
G1 X133.063 Y111.250 E0.08806
G1 X133.063 Y110.666 E0.02007
G1 X130.666 Y113.063 E0.11644
G1 X130.081 Y113.063 E0.02007
G1 X133.063 Y110.081 E0.14481
G1 X133.063 Y109.497 E0.02006
G1 X129.497 Y113.063 E0.17319
G1 X128.913 Y113.063 E0.02007
G1 X133.063 Y108.913 E0.20157
G1 X133.063 Y108.329 E0.02007
G1 X128.329 Y113.063 E0.22994
G1 X127.745 Y113.063 E0.02007
G1 X133.063 Y107.745 E0.25832
G1 X133.063 Y107.160 E0.02007
