; generated by PrusaSlicer 2.3.1+win64 on 2021-06-16 at 19:31:07 UTC

; 

; external perimeters extrusion width = 0.45mm
; perimeters extrusion width = 0.45mm
; infill extrusion width = 0.45mm
; solid infill extrusion width = 0.45mm
; top infill extrusion width = 0.40mm
; first layer extrusion width = 0.42mm

M73 P0 R130
M73 Q0 S131
M201 X1000 Y1000 Z200 E5000 ; sets maximum accelerations, mm/sec^2
M203 X200 Y200 Z12 E120 ; sets maximum feedrates, mm/sec
M204 P1250 R1250 T1250 ; sets acceleration (P, T) and retract acceleration (R), mm/sec^2
M205 X8.00 Y8.00 Z0.40 E4.50 ; sets the jerk limits, mm/sec
M205 S0 T0 ; sets the minimum extruding and travel feed rate, mm/sec
M107
;TYPE:Custom
M862.3 P "MK3" ; printer model check
M862.1 P0.4 ; nozzle diameter check
M115 U3.9.3 ; tell printer latest fw version
G90 ; use absolute coordinates
M83 ; extruder relative mode
M104 S215 ; set extruder temp
M140 S60 ; set bed temp
M190 S60 ; wait for bed temp
M109 S215 ; wait for extruder temp
G28 W ; home all without mesh bed level
G80 ; mesh bed leveling
G1 Y-3.0 F1000.0 ; go outside print area
G92 E0.0
G1 X60.0 E9.0 F1000.0 ; intro line
G1 X100.0 E12.5 F1000.0 ; intro line
G92 E0.0
M221 S100

; Don't change E values below. Excessive value can damage the printer.
M907 E430 ; set extruder motor current
G21 ; set units to millimeters
G90 ; use absolute coordinates
M83 ; use relative distances for extrusion
M900 K0.05 ; Filament gcode LA 1.5
M900 K30 ; Filament gcode LA 1.0
;LAYER_CHANGE
;Z:0.2
;HEIGHT:0.2
;BEFORE_LAYER_CHANGE
G92 E0.0
;0.2


G1 E-0.80000 F2100.000
G1 Z0.400 F10800.000
;AFTER_LAYER_CHANGE
;0.2
G1 X107.643 Y75.515
G1 Z0.200
G1 E0.80000 F2100.000
M204 S500
;TYPE:Skirt
;WIDTH:0.42
G1 F1200.000
G1 X108.281 Y74.786 E0.03037
G1 X109.001 Y74.154 E0.03002
G1 X109.809 Y73.613 E0.03049
G1 X110.667 Y73.189 E0.03002
G1 X111.580 Y72.877 E0.03026
G1 X112.489 Y72.693 E0.02906
G1 X113.493 Y72.623 E0.03157
G1 X136.504 Y72.623 E0.72149
G1 X137.614 Y72.711 E0.03491
G1 X138.425 Y72.878 E0.02596
G1 X139.302 Y73.176 E0.02906
G1 X140.299 Y73.679 E0.03501
G1 X141.609 Y74.682 E0.05171
G1 X142.351 Y75.507 E0.03478
G1 X142.954 Y76.433 E0.03466
G1 X143.589 Y77.967 E0.05207
G1 X143.819 Y79.079 E0.03561
G1 X143.877 Y79.997 E0.02883
G1 X143.877 Y130.023 E1.56853
G1 X143.789 Y131.116 E0.03440
G1 X143.622 Y131.925 E0.02588
G1 X143.325 Y132.799 E0.02894
G1 X142.890 Y133.686 E0.03097
G1 X142.355 Y134.488 E0.03026
G1 X141.716 Y135.217 E0.03037
G1 X140.993 Y135.851 E0.03014
G1 X140.188 Y136.389 E0.03037
G1 X139.319 Y136.817 E0.03038
G1 X138.405 Y137.127 E0.03026
G1 X137.443 Y137.316 E0.03073
G1 X136.507 Y137.377 E0.02942
G1 X113.458 Y137.377 E0.72268
G1 X112.552 Y137.316 E0.02849
G1 X111.738 Y137.160 E0.02596
G1 X110.701 Y136.825 E0.03418
G1 X109.814 Y136.390 E0.03097
G1 X109.009 Y135.852 E0.03038
G1 X108.281 Y135.213 E0.03037
G1 X107.635 Y134.475 E0.03073
G1 X107.107 Y133.681 E0.02990
G1 X106.673 Y132.794 E0.03097
G1 X106.366 Y131.876 E0.03037
G1 X106.171 Y130.811 E0.03394
G1 X106.123 Y79.977 E1.59385
G1 X106.211 Y78.884 E0.03440
G1 X106.378 Y78.075 E0.02588
G1 X106.675 Y77.201 E0.02894
G1 X107.108 Y76.318 E0.03085
G1 X107.610 Y75.565 E0.02837
M204 S1000
; printing object holder_4_V2.stl id:0 copy 0
;WIPE_START
G1 F8640.000
G1 X108.281 Y74.786 E-0.23743
G1 X109.001 Y74.154 E-0.22106
G1 X109.809 Y73.613 E-0.22457
G1 X110.107 Y73.465 E-0.07694
;WIPE_END
G1 E-0.04000 F2100.000
G1 Z0.600 F10800.000
G1 X134.600 Y124.657
G1 Z0.200
G1 E0.80000 F2100.000
M204 S500
;TYPE:Perimeter
G1 F1200.000
G1 X135.191 Y124.341 E0.02102
G1 X135.833 Y124.146 E0.02102
G1 X136.464 Y124.084 E0.01988
G1 X137.162 Y124.144 E0.02197
G1 X137.809 Y124.341 E0.02120
G1 X138.400 Y124.657 E0.02102
G1 X138.918 Y125.082 E0.02102
G1 X139.343 Y125.600 E0.02102
G1 X139.659 Y126.191 E0.02102
G1 X139.854 Y126.833 E0.02102
G1 X139.920 Y127.500 E0.02102
G1 X139.854 Y128.167 E0.02102
G1 X139.659 Y128.809 E0.02102
G1 X139.343 Y129.400 E0.02102
G1 X138.918 Y129.918 E0.02102
G1 X138.400 Y130.343 E0.02102
G1 X137.809 Y130.659 E0.02102
G1 X137.167 Y130.854 E0.02102
G1 X136.500 Y130.920 E0.02102
G1 X135.833 Y130.854 E0.02102
G1 X135.191 Y130.659 E0.02102
G1 X134.600 Y130.343 E0.02102
G1 X134.082 Y129.918 E0.02102
G1 X133.657 Y129.400 E0.02102
G1 X133.341 Y128.809 E0.02102
G1 X133.146 Y128.167 E0.02102
G1 X133.080 Y127.500 E0.02102
G1 X133.146 Y126.833 E0.02102
G1 X133.341 Y126.191 E0.02102
G1 X133.657 Y125.600 E0.02102
G1 X134.082 Y125.082 E0.02102
G1 X134.554 Y124.695 E0.01914
M204 S1000
G1 X134.793 Y124.986 F10800.000
M204 S500
G1 F1200.000
G1 X135.336 Y124.691 E0.01939
G1 X135.907 Y124.518 E0.01869
G1 X136.466 Y124.462 E0.01762
G1 X137.090 Y124.517 E0.01964
G1 X137.664 Y124.691 E0.01880
G1 X138.189 Y124.972 E0.01869
G1 X138.650 Y125.350 E0.01869
G1 X139.028 Y125.811 E0.01869
G1 X139.309 Y126.336 E0.01869
G1 X139.482 Y126.907 E0.01869
G1 X139.541 Y127.500 E0.01869
G1 X139.482 Y128.093 E0.01869
G1 X139.309 Y128.664 E0.01869
G1 X139.028 Y129.189 E0.01869
G1 X138.650 Y129.650 E0.01869
G1 X138.189 Y130.028 E0.01869
G1 X137.664 Y130.309 E0.01869
G1 X137.093 Y130.482 E0.01869
G1 X136.500 Y130.541 E0.01869
G1 X135.907 Y130.482 E0.01869
G1 X135.336 Y130.309 E0.01869
G1 X134.811 Y130.028 E0.01869
G1 X134.350 Y129.650 E0.01869
G1 X133.972 Y129.189 E0.01869
G1 X133.691 Y128.664 E0.01869
G1 X133.518 Y128.093 E0.01869
G1 X133.459 Y127.500 E0.01869
G1 X133.518 Y126.907 E0.01869
G1 X133.691 Y126.336 E0.01869
G1 X133.972 Y125.811 E0.01869
G1 X134.350 Y125.350 E0.01869
G1 X134.747 Y125.024 E0.01609
M204 S1000
G1 X134.986 Y125.316 F10800.000
M204 S500
;TYPE:External perimeter
G1 F1200.000
G1 X135.481 Y125.041 E0.01777
G1 X135.981 Y124.889 E0.01636
G1 X136.468 Y124.841 E0.01536
G1 X137.018 Y124.889 E0.01731
G1 X137.519 Y125.041 E0.01640
G1 X137.979 Y125.287 E0.01636
G1 X138.382 Y125.618 E0.01636
G1 X138.713 Y126.021 E0.01636
G1 X138.959 Y126.481 E0.01636
G1 X139.111 Y126.981 E0.01636
G1 X139.162 Y127.500 E0.01636
G1 X139.111 Y128.019 E0.01636
G1 X138.959 Y128.519 E0.01636
G1 X138.713 Y128.979 E0.01636
G1 X138.382 Y129.382 E0.01636
G1 X137.979 Y129.713 E0.01636
G1 X137.519 Y129.959 E0.01636
G1 X137.019 Y130.111 E0.01636
G1 X136.500 Y130.162 E0.01636
G1 X135.981 Y130.111 E0.01636
G1 X135.481 Y129.959 E0.01636
G1 X135.021 Y129.713 E0.01636
G1 X134.618 Y129.382 E0.01636
G1 X134.287 Y128.979 E0.01636
G1 X134.041 Y128.519 E0.01636
G1 X133.889 Y128.019 E0.01636
G1 X133.838 Y127.500 E0.01636
G1 X133.889 Y126.981 E0.01636
G1 X134.041 Y126.481 E0.01636
G1 X134.287 Y126.021 E0.01636
G1 X134.618 Y125.618 E0.01636
G1 X134.939 Y125.354 E0.01305
M204 S1000
G1 X134.955 Y124.917 F10800.000
;WIPE_START
G1 F8640.000
G1 X135.481 Y125.041 E-0.14452
G1 X135.981 Y124.889 E-0.12049
G1 X136.468 Y124.841 E-0.11311
G1 X137.018 Y124.889 E-0.12746
G1 X137.519 Y125.041 E-0.12078
G1 X137.979 Y125.287 E-0.12049
G1 X138.023 Y125.323 E-0.01314
;WIPE_END
G1 E-0.04000 F2100.000
G1 Z0.600 F10800.000
G1 X116.420 Y127.477
G1 Z0.200
G1 E0.80000 F2100.000
M204 S500
;TYPE:Perimeter
G1 F1200.000
G1 X116.356 Y128.105 E0.01979
G1 X116.158 Y128.708 E0.01992
G1 X115.813 Y129.283 E0.02101
G1 X115.375 Y129.737 E0.01980
G1 X114.885 Y130.070 E0.01858
G1 X114.304 Y130.307 E0.01967
G1 X113.681 Y130.414 E0.01980
G1 X113.051 Y130.385 E0.01979
G1 X112.437 Y130.220 E0.01992
G1 X111.845 Y129.906 E0.02101
G1 X111.367 Y129.493 E0.01980
G1 X111.009 Y129.022 E0.01858
G1 X110.741 Y128.454 E0.01967
G1 X110.600 Y127.839 E0.01980
G1 X110.595 Y127.208 E0.01979
G1 X110.726 Y126.590 E0.01980
G1 X110.986 Y126.015 E0.01980
G1 X111.364 Y125.509 E0.01980
G1 X111.842 Y125.097 E0.01980
G1 X112.401 Y124.795 E0.01992
G1 X113.047 Y124.615 E0.02101
G1 X113.677 Y124.586 E0.01980
G1 X114.262 Y124.682 E0.01858
G1 X114.847 Y124.910 E0.01967
G1 X115.372 Y125.260 E0.01980
G1 X115.810 Y125.715 E0.01980
G1 X116.140 Y126.253 E0.01980
G1 X116.346 Y126.850 E0.01980
G1 X116.413 Y127.417 E0.01791
M204 S1000
G1 X116.038 Y127.461 F10800.000
M204 S500
G1 F1200.000
G1 X115.985 Y128.026 E0.01781
G1 X115.813 Y128.550 E0.01730
G1 X115.512 Y129.052 E0.01834
G1 X115.131 Y129.448 E0.01722
G1 X114.706 Y129.736 E0.01610
G1 X114.199 Y129.942 E0.01715
G1 X113.658 Y130.035 E0.01722
G1 X113.109 Y130.010 E0.01722
G1 X112.576 Y129.867 E0.01730
G1 X112.059 Y129.593 E0.01834
G1 X111.644 Y129.234 E0.01722
G1 X111.333 Y128.825 E0.01610
G1 X111.099 Y128.330 E0.01715
G1 X110.977 Y127.795 E0.01722
G1 X110.972 Y127.246 E0.01722
G1 X111.086 Y126.708 E0.01722
G1 X111.313 Y126.208 E0.01722
G1 X111.642 Y125.768 E0.01722
G1 X112.058 Y125.409 E0.01722
G1 X112.543 Y125.147 E0.01730
G1 X113.107 Y124.990 E0.01834
G1 X113.655 Y124.965 E0.01722
G1 X114.162 Y125.048 E0.01610
G1 X114.672 Y125.246 E0.01715
G1 X115.129 Y125.551 E0.01722
G1 X115.510 Y125.947 E0.01722
G1 X115.797 Y126.415 E0.01722
M73 Q0 S130
G1 X115.977 Y126.934 E0.01722
G1 X116.031 Y127.401 E0.01475
M204 S1000
G1 X115.661 Y127.483 F10800.000
M204 S500
;TYPE:External perimeter
G1 F1200.000
G1 X115.614 Y127.948 E0.01465
G1 X115.468 Y128.393 E0.01468
G1 X115.210 Y128.821 E0.01568
G1 X114.886 Y129.158 E0.01465
G1 X114.527 Y129.401 E0.01363
G1 X114.095 Y129.578 E0.01463
G1 X113.634 Y129.657 E0.01465
G1 X113.167 Y129.635 E0.01465
G1 X112.715 Y129.514 E0.01468
G1 X112.274 Y129.279 E0.01568
G1 X111.920 Y128.974 E0.01465
G1 X111.657 Y128.628 E0.01363
G1 X111.458 Y128.206 E0.01463
G1 X111.354 Y127.751 E0.01465
G1 X111.350 Y127.284 E0.01465
G1 X111.447 Y126.826 E0.01465
G1 X111.639 Y126.401 E0.01465
G1 X111.919 Y126.026 E0.01465
G1 X112.273 Y125.721 E0.01465
G1 X112.685 Y125.498 E0.01468
G1 X113.167 Y125.365 E0.01568
G1 X113.633 Y125.343 E0.01465
G1 X114.062 Y125.413 E0.01363
G1 X114.497 Y125.583 E0.01463
G1 X114.886 Y125.842 E0.01465
G1 X115.210 Y126.178 E0.01465
G1 X115.454 Y126.577 E0.01465
G1 X115.607 Y127.019 E0.01465
G1 X115.654 Y127.423 E0.01277
M204 S1000
G1 X116.009 Y127.680 F10800.000
;WIPE_START
G1 F8640.000
G1 X115.614 Y127.948 E-0.12147
G1 X115.468 Y128.393 E-0.10810
G1 X115.210 Y128.821 E-0.11544
G1 X114.886 Y129.158 E-0.10790
G1 X114.527 Y129.401 E-0.10036
G1 X114.095 Y129.578 E-0.10770
G1 X113.672 Y129.650 E-0.09903
;WIPE_END
G1 E-0.04000 F2100.000
G1 Z0.600 F10800.000
G1 X113.681 Y85.414
G1 Z0.200
G1 E0.80000 F2100.000
M204 S500
;TYPE:Perimeter
G1 F1200.000
G1 X113.051 Y85.385 E0.01979
G1 X112.437 Y85.220 E0.01992
G1 X111.845 Y84.906 E0.02101
G1 X111.367 Y84.493 E0.01980
G1 X111.009 Y84.022 E0.01858
G1 X110.741 Y83.454 E0.01967
G1 X110.600 Y82.839 E0.01980
G1 X110.595 Y82.208 E0.01979
G1 X110.726 Y81.590 E0.01979
G1 X110.986 Y81.015 E0.01980
G1 X111.364 Y80.509 E0.01980
G1 X111.842 Y80.097 E0.01980
G1 X112.401 Y79.795 E0.01992
G1 X113.047 Y79.615 E0.02101
G1 X113.677 Y79.586 E0.01980
G1 X114.262 Y79.682 E0.01858
G1 X114.847 Y79.910 E0.01967
G1 X115.372 Y80.260 E0.01980
G1 X115.810 Y80.715 E0.01980
G1 X116.140 Y81.253 E0.01980
G1 X116.346 Y81.850 E0.01980
G1 X116.420 Y82.477 E0.01979
G1 X116.356 Y83.105 E0.01979
G1 X116.158 Y83.708 E0.01992
G1 X115.813 Y84.283 E0.02101
G1 X115.375 Y84.737 E0.01980
G1 X114.885 Y85.070 E0.01858
G1 X114.304 Y85.307 E0.01967
G1 X113.740 Y85.404 E0.01791
M204 S1000
G1 X113.677 Y85.032 F10800.000
M204 S500
G1 F1200.000
G1 X113.109 Y85.010 E0.01781
G1 X112.576 Y84.867 E0.01730
G1 X112.059 Y84.593 E0.01834
G1 X111.644 Y84.234 E0.01722
G1 X111.333 Y83.825 E0.01610
G1 X111.099 Y83.330 E0.01715
G1 X110.977 Y82.795 E0.01722
G1 X110.972 Y82.246 E0.01722
G1 X111.086 Y81.708 E0.01722
G1 X111.313 Y81.208 E0.01722
G1 X111.642 Y80.768 E0.01722
G1 X112.058 Y80.409 E0.01722
G1 X112.543 Y80.147 E0.01730
G1 X113.107 Y79.990 E0.01834
G1 X113.655 Y79.965 E0.01722
G1 X114.162 Y80.048 E0.01610
G1 X114.672 Y80.246 E0.01715
G1 X115.129 Y80.551 E0.01722
G1 X115.510 Y80.947 E0.01722
G1 X115.797 Y81.415 E0.01722
G1 X115.977 Y81.934 E0.01722
G1 X116.040 Y82.480 E0.01722
G1 X115.985 Y83.026 E0.01722
G1 X115.813 Y83.550 E0.01730
G1 X115.512 Y84.052 E0.01834
G1 X115.131 Y84.448 E0.01722
G1 X114.706 Y84.736 E0.01610
G1 X114.199 Y84.942 E0.01715
G1 X113.736 Y85.022 E0.01475
M204 S1000
G1 X113.634 Y84.657 F10800.000
M204 S500
;TYPE:External perimeter
G1 F1200.000
G1 X113.167 Y84.635 E0.01465
G1 X112.715 Y84.514 E0.01468
G1 X112.274 Y84.279 E0.01568
G1 X111.920 Y83.974 E0.01465
G1 X111.657 Y83.628 E0.01363
G1 X111.458 Y83.206 E0.01463
G1 X111.354 Y82.751 E0.01465
G1 X111.350 Y82.284 E0.01465
G1 X111.447 Y81.826 E0.01465
G1 X111.639 Y81.401 E0.01465
G1 X111.919 Y81.026 E0.01465
G1 X112.273 Y80.721 E0.01465
G1 X112.685 Y80.498 E0.01468
G1 X113.167 Y80.365 E0.01568
G1 X113.633 Y80.343 E0.01465
G1 X114.062 Y80.413 E0.01363
G1 X114.497 Y80.583 E0.01463
G1 X114.886 Y80.842 E0.01465
G1 X115.210 Y81.178 E0.01465
G1 X115.454 Y81.577 E0.01465
G1 X115.607 Y82.019 E0.01465
G1 X115.661 Y82.483 E0.01465
G1 X115.614 Y82.948 E0.01465
G1 X115.468 Y83.393 E0.01468
G1 X115.210 Y83.821 E0.01568
G1 X114.886 Y84.158 E0.01465
G1 X114.527 Y84.401 E0.01363
G1 X114.095 Y84.578 E0.01463
G1 X113.693 Y84.647 E0.01277
M204 S1000
G1 X113.456 Y85.015 F10800.000
;WIPE_START
G1 F8640.000
G1 X113.167 Y84.635 E-0.12147
G1 X112.715 Y84.514 E-0.10810
G1 X112.274 Y84.279 E-0.11544
G1 X111.920 Y83.974 E-0.10790
G1 X111.657 Y83.628 E-0.10036
G1 X111.458 Y83.206 E-0.10771
G1 X111.362 Y82.788 E-0.09903
;WIPE_END
G1 E-0.04000 F2100.000
G1 Z0.600 F10800.000
G1 X133.080 Y82.500
G1 Z0.200
G1 E0.80000 F2100.000
M204 S500
;TYPE:Perimeter
G1 F1200.000
G1 X133.146 Y81.833 E0.02102
G1 X133.341 Y81.191 E0.02102
G1 X133.657 Y80.600 E0.02102
G1 X134.082 Y80.082 E0.02102
G1 X134.600 Y79.657 E0.02102
G1 X135.191 Y79.341 E0.02102
G1 X135.833 Y79.146 E0.02102
G1 X136.464 Y79.084 E0.01988
G1 X137.162 Y79.144 E0.02197
G1 X137.809 Y79.341 E0.02120
G1 X138.400 Y79.657 E0.02102
G1 X138.918 Y80.082 E0.02102
G1 X139.343 Y80.600 E0.02102
G1 X139.659 Y81.191 E0.02102
G1 X139.854 Y81.833 E0.02102
G1 X139.920 Y82.500 E0.02102
G1 X139.854 Y83.167 E0.02102
G1 X139.659 Y83.809 E0.02102
G1 X139.343 Y84.400 E0.02102
G1 X138.918 Y84.918 E0.02102
G1 X138.400 Y85.343 E0.02102
G1 X137.809 Y85.659 E0.02102
G1 X137.167 Y85.854 E0.02102
G1 X136.500 Y85.920 E0.02102
G1 X135.833 Y85.854 E0.02102
G1 X135.191 Y85.659 E0.02102
G1 X134.600 Y85.343 E0.02102
G1 X134.082 Y84.918 E0.02102
G1 X133.657 Y84.400 E0.02102
G1 X133.341 Y83.809 E0.02102
G1 X133.146 Y83.167 E0.02102
G1 X133.086 Y82.560 E0.01914
M204 S1000
G1 X133.461 Y82.523 F10800.000
M204 S500
G1 F1200.000
G1 X133.518 Y81.907 E0.01939
G1 X133.691 Y81.336 E0.01869
G1 X133.972 Y80.811 E0.01869
G1 X134.350 Y80.350 E0.01869
G1 X134.811 Y79.972 E0.01869
G1 X135.336 Y79.691 E0.01869
G1 X135.907 Y79.518 E0.01869
G1 X136.466 Y79.462 E0.01762
G1 X137.090 Y79.517 E0.01964
G1 X137.664 Y79.691 E0.01880
G1 X138.189 Y79.972 E0.01869
G1 X138.650 Y80.350 E0.01869
G1 X139.028 Y80.811 E0.01869
G1 X139.309 Y81.336 E0.01869
G1 X139.482 Y81.907 E0.01869
G1 X139.541 Y82.500 E0.01869
G1 X139.482 Y83.093 E0.01869
G1 X139.309 Y83.664 E0.01869
G1 X139.028 Y84.189 E0.01869
G1 X138.650 Y84.650 E0.01869
G1 X138.189 Y85.028 E0.01869
G1 X137.664 Y85.309 E0.01869
G1 X137.093 Y85.482 E0.01869
G1 X136.500 Y85.541 E0.01869
G1 X135.907 Y85.482 E0.01869
G1 X135.336 Y85.309 E0.01869
G1 X134.811 Y85.028 E0.01869
G1 X134.350 Y84.650 E0.01869
G1 X133.972 Y84.189 E0.01869
G1 X133.691 Y83.664 E0.01869
G1 X133.518 Y83.093 E0.01869
G1 X133.467 Y82.582 E0.01609
M204 S1000
G1 X133.842 Y82.546 F10800.000
M204 S500
;TYPE:External perimeter
G1 F1200.000
G1 X133.889 Y81.981 E0.01777
G1 X134.041 Y81.481 E0.01636
G1 X134.287 Y81.021 E0.01636
G1 X134.618 Y80.618 E0.01636
G1 X135.021 Y80.287 E0.01636
G1 X135.481 Y80.041 E0.01636
G1 X135.981 Y79.889 E0.01636
G1 X136.468 Y79.841 E0.01536
G1 X137.018 Y79.889 E0.01731
G1 X137.519 Y80.041 E0.01640
G1 X137.979 Y80.287 E0.01636
G1 X138.382 Y80.618 E0.01636
G1 X138.713 Y81.021 E0.01636
G1 X138.959 Y81.481 E0.01636
G1 X139.111 Y81.981 E0.01636
G1 X139.162 Y82.500 E0.01636
G1 X139.111 Y83.019 E0.01636
G1 X138.959 Y83.519 E0.01636
G1 X138.713 Y83.979 E0.01636
G1 X138.382 Y84.382 E0.01636
G1 X137.979 Y84.713 E0.01636
G1 X137.519 Y84.959 E0.01636
G1 X137.019 Y85.111 E0.01636
G1 X136.500 Y85.162 E0.01636
